!!!!SEGMENT: pl-wnifc--494-n_grabowski-stanislaw--wiosna-na-wsi.krn
!!!cenid: 18xx:3874
!!!COM: Grabowski, Stanisław
!!!COM-rismID: pe30110390
!!!CDT: 1791-1852
!!!CNT: Polish
!!!OTL: Wiosna na wsi
!!!PDT:
!!!AGN:
!!!SMS-siglum: PL-Wnifc
!!!SMS-shelfmark: 494/n
!!!SMS-shelfwork: W
!!!SMS-variant:
!!!SMS-altvar:
!!!NIFC-rismSourceID: 1001121151
!!!NIFC-islandoraID: nifc:212398
!!!URL-pdf-islandora: https://repozytorium.nifc.pl/islandora/object/nifc%3A212398/datastream/PDF/view
!!!URL-scan:
!!!ONB-nifc:
!!!AIN: 2 piano
!!!key:
**kern	**fing	**dynam	**kern	**fing	**dynam
*part2	*part2	*part2	*part1	*part1	*part1
*staff2	*	*	*staff1	*	*
*I"PIANO.	*	*	*I"PIANO.	*	*
*I'pf	*	*	*I'pf	*	*
*ICklav	*	*	*ICklav	*	*
*Ipiano	*	*	*Ipiano	*	*
*>[A,A1,A,A2,B]	*>[A,A1,A,A2,B]	*>[A,A1,A,A2,B]	*>[A,A1,A,A2,B]	*>[A,A1,A,A2,B]	*>[A,A1,A,A2,B]
*>A	*>A	*>A	*>A	*>A	*>A
*clefF4	*	*	*clefG2	*	*
*k[b-e-a-d-g-c-]	*	*	*k[b-e-a-d-g-c-]	*	*
*E-:	*	*	*E-:	*	*
*M3/4	*	*	*M3/4	*	*
=1	=1	=1	=1	=1	=1
*ped	*	*	*	*	*
!LO:TX:i:a:t=Dzwon	!	!	!LO:TX:B:a:t=Andante.	!	!
2EE-'/	.	.	2.r	.	pp
4EE-'/	.	.	.	.	.
=2	=2	=2	=2	=2	=2
!LO:TX:i:a:t=w pobliskim Kościele dodnia	!	!	!	!	!
4EE-'/	.	.	2.r	.	.
4EE-'/	.	.	.	.	.
4EE-'/	.	.	.	.	.
=3	=3	=3	=3	=3	=3
2EE-'/	.	.	2.r	.	.
4EE-'/	.	.	.	.	.
=4	=4	=4	=4	=4	=4
4EE-'/	.	.	2.r	.	.
4EE-'/	.	.	.	.	.
4EE-'/	.	.	.	.	.
=5	=5	=5	=5	=5	=5
!LO:TX:i:a:t=Ze Snu.	!	!	!	!	!
4.EE-/	.	.	2.r	.	.
*Xped	*	*	*	*	*
(8DDn/L	.	.	.	.	.
8EE-/	.	.	.	.	.
*	*below	*	*	*	*
8FF/J	1	.	.	.	.
=6	=6	=6	=6	=6	=6
*^	*	*	*	*	*
8GGn/L	2ryy	4	.	2.r	.	<[
8AAn/	.	.	.	.	.	.
8BB-/	.	.	.	.	.	.
8Dn/)	.	.	.	.	.	.
N[<8E-/	4E-\	3	.	.	.	.
8F/J	.	.	.	.	.	.
=7	=7	=7	=7	=7	=7	=7
*ped	*	*	*	*	*	*
4A-/	4E-\N]	.	.	(4.B-^^/ 4.e-	.	.
4EE-/	4ryy	.	.	.	.	.
.	.	.	.	8dn/L	.	<
4r	4ryy	.	.	8e-/	.	.
.	.	.	.	8f/J)	.	.
*v	*v	*	*	*	*	*
!!LO:LB:g=original	!	!	!	!
=8	=8	=8	=8	=8	=8
2.r	.	.	(8g-\L	.	.
.	.	.	8an\	1	.
.	.	.	8b-\	2	.
.	.	.	8ddn\	3	.
.	.	.	8ee-\	4	.
.	.	.	8ff\J)	5	[[
=9	=9	=9	=9	=9	=9
2.r	.	.	(>8gg-\L	4	>
.	.	.	8ee-\	3	.
.	.	.	8b-\	2	.
.	.	.	8g-\	1	.
.	.	.	8ee-\	.	.
.	.	.	8b-\J)	.	.
=10	=10	=10	=10	=10	=10
2.r	.	.	(8g-/L	.	.
.	.	.	8e-/	.	.
.	.	.	8b-/	.	.
.	.	.	8g-/	.	.
.	.	.	8e-/	.	.
.	.	.	8B-/J)	.	.
=11	=11	=11	=11	=11	=11
2.r	.	.	(8g-/L	.	.
.	.	.	8e-/	.	.
.	.	.	8B-/	.	.
.	.	.	8G-/	.	.
.	.	.	8e-/	.	.
.	.	.	8B-/J)	.	]]
*	*	*	*clefF4	*	*
=12	=12	=12	=12	=12	=12
!	!	!	!LO:TX:i:b:t=smorzando	!	!
2.r	.	.	(8G-\L	.	.
.	.	.	8E-\	.	.
.	.	.	8B-\	.	.
.	.	.	8G-\	.	.
.	.	.	8E-\	.	.
.	.	.	8BB-\J)	.	.
=13	=13	=13	=13	=13	=13
2.r	.	.	4B-'\	.	p
.	.	.	4r	.	.
.	.	.	4r	.	.
*	*	*	*clefG2	*	*
=14	=14	=14	=14	=14	=14
4BB-'\ 4F	.	.	4A-'/ 4dn	.	pp
4r	.	.	4r	.	.
4r;	.	.	4r;	.	.
!!LO:LB:g=original	!	!	!	!
=15||	=15||	=15||	=15||	=15||	=15||
!	!	!	!LO:TX:B:a:t=Religioso.	!	!
2EE-/ 2G-	.	.	2B-/ 2e-	.	p
!	!	!	!LO:TX:b:t=Organy.	!	!
4E-\ 4G-	.	.	4B-/ 4e-	.	.
=16	=16	=16	=16	=16	=16
4E-\	.	.	4B-/ 4e-	.	.
4E-\ 4G-	.	.	4B-/ 4dn	.	.
4E-\ 4G-	.	.	4B-/ 4e-	.	.
=17	=17	=17	=17	=17	=17
*	*	*	*^	*	*
!	!	!	!	!	!	!LO:DY:a
((2.BB-\ 2.F 2.A-	.	.	(2gn/	[2.B-\ 2.dn	.	rfz
.	.	.	4f/	.	.	.
=18	=18	=18	=18	=18	=18	=18
4E-\)) 4G-	.	.	4e-/)	4B-\]	.	.
4r	.	.	4r	4r	.	.
4r	.	.	4r	4r	.	.
=19	=19	=19	=19	=19	=19	=19
!	!	!	!LO:TX:i:a:t=Poranek mglisty i posępny.	!	!	!
2E-\ 2B-	.	.	2g-/	2e-\	.	p
4E-\ 4B-	.	.	4g-/	4e-\	.	.
=20	=20	=20	=20	=20	=20	=20
4E-\ 4B-	.	.	4g-/	4e-\	.	.
4E-\ 4B-	.	.	4f/	4e-\	.	.
4E-\ 4B-	.	.	4g-/	4e-\	.	.
=21	=21	=21	=21	=21	=21	=21
!	!	!	!	!	!	!LO:DY:a
2AA-\ 2A-	.	.	2f/ 2a-	2c-\	.	rfz
4AAn\ 4An	.	.	4e-/ 4g-	4cn\	.	.
=22	=22	=22	=22	=22	=22	=22
4BB-\ 4B-	.	.	4f/	4dn\	.	.
4r	.	.	4r	4ryy	.	.
4r	.	.	4r	4ryy	.	.
*	*	*	*v	*v	*	*
=23	=23	=23	=23	=23	=23
2.r	.	.	2B-/ 2b-	.	<
.	.	.	4B-/ 4b-	.	.
!!LO:LB:g=original	!	!	!	!
=24	=24	=24	=24	=24	=24
2.r	.	.	4B-/ 4b-	.	.
.	.	.	4B-/ 4b-	.	.
.	.	.	4B-/ 4b-	.	.
=25	=25	=25	=25	=25	=25
*	*	*	*^	*	*
!	!	!	!	!	!	!LO:DY:a
4r	.	.	2b-/	[2.B-\	.	sfz
(4BB-/	.	.	.	.	.	.
4A-\	.	.	(4dn/	.	.	.
=26	=26	=26	=26	=26	=26	=26
4G-\	.	.	4e-/	2.B-\]	.	.
4F\	.	.	4f/	.	.	.
4E-\)	.	.	4g-/)	.	.	.
=27	=27	=27	=27	=27	=27	=27
*^	*	*	*	*	*	*
!	!	!	!	!	!	!	!LO:DY:a
(2.A-/	(2.D-\	.	.	(2.a-/	4f\	.	rf
.	.	.	.	.	4d-\	.	.
.	.	.	.	.	4c-\	.	.
=28	=28	=28	=28	=28	=28	=28	=28
4B-/)	4G-\)	.	.	4b-/)	(4d-\	.	.
4r	4ryy	.	.	4r	4f\	.	.
4r	4ryy	.	.	4r	4g-\)	.	.
=29	=29	=29	=29	=29	=29	=29	=29
2.B-/	(2Dn\	.	.	(4b-/	2f\	.	.
.	.	.	.	4a-/	.	.	.
.	4E-\)	.	.	[4g-/	4e-\	.	.
=30	=30	=30	=30	=30	=30	=30	=30
(2A-/	(2AA-\	.	.	4g-/]	2c-\	.	.
.	.	.	.	4f/	.	.	.
4G-X/)	4AAn\)	.	.	[4e-/)	4cn\	.	.
=31	=31	=31	=31	=31	=31	=31	=31
(2F/	[2.BB-\	.	.	(4e-/]	2B-\	.	.
.	.	.	.	4dn/	.	.	.
4E-/	.	.	.	4cn/	4An\	.	.
=32	=32	=32	=32	=32	=32	=32	=32
4Dn/)	4BB-\]	.	.	4B-/)	4B-\	.	.
4r	4ryy	.	.	(8cc-/L	4r	.	.
.	.	.	.	8ddn/	.	.	.
4r	4ryy	.	.	8ee-/	4r	.	.
.	.	.	.	8ff/J)	.	.	.
*	*	*	*	*v	*v	*	*
!!LO:LB:g=original	!	!	!	!	!
=33	=33	=33	=33	=33	=33	=33
!	!	!	!	!LO:TX:i:b:t=teneramente	!	!
!	!	!	!	!LO:TX:i:a:t=Echo w głębi duszy czułej.	!	!
(<8E-/L	4E-\	.	.	2.gg-\	.	.
8G-/	.	.	.	.	.	.
8B-/	4ryy	.	.	.	.	.
8e-/	.	.	.	.	.	.
8G-/	4ryy	.	.	.	.	.
8B-/J)	.	.	.	.	.	.
=34	=34	=34	=34	=34	=34	=34
(<8BB-/L	4BB-\	.	.	(4ff\	.	.
8A-/	.	.	.	.	.	.
.	.	.	.	8qaa-/	.	.
8B-/	4ryy	.	.	4gg-\	.	.
8dn/	.	.	.	.	.	.
8A-/	4ryy	.	.	4ff\)	.	.
8B-/J)	.	.	.	.	.	.
=35	=35	=35	=35	=35	=35	=35
!LO:N:vis=2.	!	!	!	!	!	!
(<8E-/L	2.E-\	.	.	(2.ee-\	.	.
8G-/	.	.	.	.	.	.
8B-/	.	.	.	.	.	.
8e-/	.	.	.	.	.	.
8G-/	.	.	.	.	.	.
8B-/J)	.	.	.	.	.	.
=36	=36	=36	=36	=36	=36	=36
(<8e-/L	4e-\	.	.	4b-\)	.	.
8g-/	.	.	.	.	.	.
8e-/	4ryy	.	.	4r	.	.
8B-/	.	.	.	.	.	.
8G-/	4ryy	.	.	4r	.	.
8E-/J)	.	.	.	.	.	.
=37	=37	=37	=37	=37	=37	=37
!LO:N:vis=2.	!	!	!	!	!	!
(<8Dn/L	2.Dn\	.	.	(2ff^^\	.	.
8A-/	.	.	.	.	.	.
8B-/	.	.	.	.	.	.
8f/	.	.	.	.	.	.
8A-/	.	.	.	4b-\)	.	.
8B-/J)	.	.	.	.	.	.
!!LO:PB:g=original	!	!	!	!	!
=38	=38	=38	=38	=38	=38	=38
*ped	*	*	*	*	*	*
.	.	.	.	(>8qb-/	.	.
!LO:N:vis=2.	!	!	!	!	!	!
(<8E-/L	2.E-\	.	.	4gg-\	.	.
8G-/	.	.	.	.	.	.
8B-/	.	.	.	4ff\	.	.
8e-/	.	.	.	.	.	.
8G-/	.	.	.	4ee-\)	.	.
8B-/J)	.	.	.	.	.	.
*Xped	*	*	*	*	*	*
=39	=39	=39	=39	=39	=39	=39
*ped	*	*	*	*	*	*
.	.	.	.	(32qqf/LLL	.	.
.	.	.	.	32qqb-/	.	.
.	.	.	.	32qqddn/JJJ)	.	.
(<8BB-/L	4BB-\	.	.	(>2.ff/	.	.
8F/	.	.	.	.	.	.
8B-/	4ryy	.	.	.	.	.
8dn>\	.	.	.	.	.	.
8f>\	4ryy	.	.	.	.	.
8b->\J)	.	.	.	.	.	.
*v	*v	*	*	*	*	*
=40	=40	=40	=40	=40	=40
(<8f>\L	.	.	4b-/)	.	.
8dn>\	.	.	.	.	.
8B-/	.	.	4r	.	.
8F/	.	.	.	.	.
8Dn/	.	.	4r	.	.
8BB-/J)	.	.	.	.	.
*Xped	*	*	*	*	*
=41	=41	=41	=41	=41	=41
*ped	*	*	*	*	*
!	!	!	!LO:TX:b:t=cre_scen_do:dur=4h:ext=ud:problem:text with extention lines	!	!
(<8EE-/L	.	.	2.g-:/ 2.b-: 2.ee-: 2.gg-:	.	<
8E-/	.	.	.	.	.
8G-/	.	.	.	.	.
8B-/	.	.	.	.	.
8e->\	.	.	.	.	.
8g->\J)	.	.	.	.	.
*Xped	*	*	*	*	*
=42	=42	=42	=42	=42	=42
*	*	*	*^	*	*
*ped	*	*	*	*	*	*
8DD-`/L	.	.	(2gg-/	2.a-:/ 2.dd-: 2.aa-:	.	.
(<8f>\	.	.	.	.	.	.
8d->\	.	.	.	.	.	.
8A-\	.	.	.	.	.	.
8F\	.	.	4ff/)	.	.	.
8D-\J)	.	.	.	.	.	.
*Xped	*	*	*	*	*	*
*	*	*	*v	*v	*	*
=43	=43	=43	=43	=43	=43
*^	*	*	*	*	*
*ped	*	*	*	*	*	*
(<8GG-/L	4GG-\	.	.	2.b-:/ 2.dd-: 2.gg-: 2.bb-:	.	.
8D-/	.	.	.	.	.	.
8G-/	2ryy	.	.	.	.	.
8B-/	.	.	.	.	.	.
8d->\	.	.	.	.	.	.
8g->\J)	.	.	.	.	.	.
*Xped	*	*	*	*	*	*
!!LO:LB:g=original	!	!	!	!	!
=44	=44	=44	=44	=44	=44	=44
*ped	*	*	*	*	*	*
(<8AA-/L	4AA-\	.	.	2.a-:/ 2.cc-: 2.ff: 2.aa-:	.	[[
8C-/	.	.	.	.	.	.
8F/	4ryy	.	.	.	.	.
8A-/	.	.	.	.	.	.
8c-/	4ryy	.	.	.	.	.
8f/J)	.	.	.	.	.	.
*Xped	*	*	*	*	*	*
=45	=45	=45	=45	=45	=45	=45
*ped	*	*	*	*	*	*
!	!	!	!	!LO:TX:b:t=di_mi_nuendo:dur=3h:ext=ud:problem:text with extention lines	!	!
(>8BB-\L	4BB-/	.	.	2.g-:/ 2.b-: 2.ee-: 2.gg-:	.	.
8E-\	.	.	.	.	.	.
8G-\	4ryy	.	.	.	.	.
8B-\	.	.	.	.	.	.
8e-\	4ryy	.	.	.	.	.
8B-\J)	.	.	.	.	.	.
*Xped	*	*	*	*	*	*
=46	=46	=46	=46	=46	=46	=46
*	*	*	*	*^	*	*
*ped	*	*	*	*	*	*	*
(8BB-\L	4BB-/	.	.	4ff/	2.a-:\ 2.b-: 2.ddn:	1-1 2 3	.
8F\	.	.	.	.	.	.	.
.	.	.	.	8qaa-/	.	5	.
8B-\	4ryy	.	.	4gg-/	.	.	>
8dn\	.	.	.	.	.	.	.
8F\	4ryy	.	.	4ff/	.	.	.
8B-\J)	.	.	.	.	.	.	]]
*Xped	*	*	*	*	*	*	*
=47	=47	=47	=47	=47	=47	=47	=47
*ped	*	*	*	*	*	*	*
(>8E-\L	4E-/	.	.	(2ee-/	2.g-\ 2.b-	.	.
8G-\	.	.	.	.	.	.	.
8B-\	4ryy	.	.	.	.	.	.
8e-\	.	.	.	.	.	.	.
8B-\	4ryy	.	.	4gg-/)	.	.	.
8G-\J)	.	.	.	.	.	.	.
*v	*v	*	*	*	*	*	*
=48	=48	=48	=48	=48	=48	=48
(8E-\L	.	.	(2ee-/	2.g-\ 2.b-	.	]
8B-\	.	.	.	.	.	.
8G-\	.	.	.	.	.	.
8E-\	.	.	.	.	.	.
8BB-\	.	.	4gg-/)	.	.	.
8GG-\J)	.	.	.	.	.	.
=49	=49	=49	=49	=49	=49	=49
2EE-;/	.	.	2ee-;/	2g-\ 2b-	.	.
*Xped	*	*	*	*	*	*
4r	.	.	4r	4ryy	.	.
*	*	*	*v	*v	*	*
!!LO:LB:g=original	!	!	!	!
=50||	=50||	=50||	=50||	=50||	=50||
!	!	!	!LO:TX:i:b:t=sotto voce	!	!
!LO:TX:i:a:t=Wznoszące się mgły.	!	!	!LO:TX:B:a:t=Lento patetico e minaccioso.	!	!
8BBB-/L	.	.	2.r	.	.
8AAAn/	.	.	.	.	.
8BBB-/	.	.	.	.	.
8AAA/	.	.	.	.	.
8BBB-/	.	.	.	.	.
8AAA/J	.	.	.	.	.
*	*	*	*clefF4	*	*
=51	=51	=51	=51	=51	=51
*^	*	*	*^	*	*
8BBB-/L	8ryy	.	.	8BB-/L	8ryy	.	.
8AAAn/	8ryy	.	.	8AAn/	8ryy	.	.
8BBB-/	[2BBB-\	.	.	8BB-/	[2BB-\	.	.
8GG-/	.	.	.	8E-/	.	.	.
8FF/	.	.	.	8Dn/	.	.	.
8EE-/J	.	.	.	8Cn/J	.	.	.
=52	=52	=52	=52	=52	=52	=52	=52
8DDn/L	2.BBB-\_	.	.	8BB-/L	2.BB-\_	.	<
8EE-/	.	.	.	8C-X/	.	.	.
8DD/	.	.	.	8BB-/	.	.	.
8FF/	.	.	.	8A-/	.	.	.
8EE-/	.	.	.	8G-/	.	.	.
8AA-/J	.	.	.	8F/J	.	.	[[
!!LO:LB:g=original	!	!	!	!	!	!
=53	=53	=53	=53	=53	=53	=53	=53
8GG-/L	2.BBB-\_	.	.	8E-/L	2.BB-\_	.	>
8BBB-/	.	.	.	8B-/	.	.	.
8FF/	.	.	.	8A-/	.	.	.
8EE-/	.	.	.	8G-/	.	.	.
8DDn/	.	.	.	8F/	.	.	.
8EE-/J	.	.	.	8G-/J	.	.	]]
=54	=54	=54	=54	=54	=54	=54	=54
8DDn/	8BBB-\]	.	.	4F/	4BB-\]	.	.
(8AAn/L	8ryy	.	.	.	.	.	.
8BB-/	4ryy	.	.	4r	4ryy	.	.
8AA/	.	.	.	.	.	.	.
8BB-/	4ryy	.	.	4r	4ryy	.	.
8AA/J)	.	.	.	.	.	.	.
*	*	*	*	*clefG2	*	*	*
=55	=55	=55	=55	=55	=55	=55	=55
!	!	!	!	!LO:TX:i:a:t=Krążące chmury.	!	!	!
8BB-/L	2ryy	.	.	8B-/L	2ryy	.	.
8AAn/	.	.	.	8An/	.	.	.
8BB-/	.	.	.	8B-/	.	.	.
8AA/	.	.	.	8A/	.	.	.
8BB-/	[4BB-\	.	.	8B-/	[4B-\	.	.
8G-/J	.	.	.	8e-/J	.	.	.
=56	=56	=56	=56	=56	=56	=56	=56
8F/L	2.BB-\_	.	.	8dn/L	2.B-\_	.	<
8G-/	.	.	.	8e-/	.	.	.
8F/	.	.	.	8d/	.	.	.
8E-/	.	.	.	8g-/	.	.	.
8Dn/	.	.	.	8f/	.	.	.
8F/J	.	.	.	8a-/J	.	.	.
!!LO:LB:g=original	!	!	!	!	!	!
=57	=57	=57	=57	=57	=57	=57	=57
8E-/L	2.BB-\]	.	.	8g-/L	2.B-\_	.	[
8G-/	.	.	.	8b-/	.	.	.
8F/	.	.	.	8a-/	.	.	.
8E-/	.	.	.	8g-/	.	.	.
8Dn/	.	.	.	8f/	.	.	.
8E-/J	.	.	.	8g-/J	.	.	.
=58	=58	=58	=58	=58	=58	=58	=58
4Dn/	4BB-\	.	.	4f/	4B-\]	.	.
8r	8ryy	.	.	8r	2ryy	.	.
!	!	!	!	!LO:TX:i:b:t=legato	!	!	!
8g->\L	8ryy	.	.	8b-/L 8ee-	.	.	.
8f>\	8ryy	.	.	8a-/ 8dd-	.	.	.
8e->\J	8ryy	.	.	8g-/J 8cc-	.	.	.
=59	=59	=59	=59	=59	=59	=59	=59
!	!	!	!	!	!	!	!LO:HP:a
8dn>\L	2ryy	.	.	8f/L 8b-	4ryy	.	>
8e->\	.	.	.	8g-/ 8cc-	.	.	.
8d>\	.	.	.	8f/ 8b-	8ryy	.	.
8c-\	.	.	.	8a-/	4e-\	.	.
8B-\	4B-/	.	.	8g-/	.	.	.
8A-\J	.	.	.	8f/J	8d-\	.	]]
=60	=60	=60	=60	=60	=60	=60	=60
!	!	!	!	!	!	!	!LO:HP:a
4.B-/	8G-\L	.	.	8b-/L	8e-\L	.	>
.	8F\	.	.	8a-/	8dn\	.	.
.	8E-\	.	.	8g-/	8e-\	.	.
8A-/L	8BB-\	.	.	8f/	8d\	.	.
8G-/	8C-\	.	.	8e-/	8e-\	.	.
8A-/J	8AA-\J	.	.	8f/J	8c-\J	.	]]
=61	=61	=61	=61	=61	=61	=61	=61
4G-/	4BB-\	.	.	4e-'/ 4g-	4B-\	.	p
4r	4ryy	.	.	4r	4ryy	.	.
4r	4ryy	.	.	4r	4ryy	.	.
*v	*v	*	*	*	*	*	*
*	*	*	*v	*v	*	*
=62	=62	=62	=62	=62	=62
!	!	!	!LO:TX:B:a:t=Vivo.	!	!
4BBB-;<\ 4BB-	.	.	4F<;/ 4A-< 4B- 4dn	.	pp
!LO:TX:i:a:t=Błyskawica w różnych stronach.	!	!	!	!	!
4r	.	.	4r	.	.
!	!	!	!LO:TUP:a:problem:klamra łukowa	!	!
4r	.	.	12bbb-\L	.	.
.	.	.	12bb-\	.	rf
.	.	.	12bbb-\J	.	.
!!LO:LB:g=original	!	!	!	!
=63	=63	=63	=63	=63	=63
2.r	.	.	4bb-`\	.	.
.	.	.	4r	.	.
!	!	!	!LO:TUP:a:problem:klamra łukowa	!	!
.	.	.	12bb-\L	.	.
.	.	.	12b-\	.	rf
.	.	.	12bb-\J	.	.
=64	=64	=64	=64	=64	=64
2.r	.	.	4b-`\	.	.
.	.	.	4r	.	.
!	!	!	!LO:TUP:b:problem:klamra łukowa	!	!
.	.	.	12b-/L	.	.
!	!	!	!	!	!LO:DY:a
.	.	.	12B-/	.	rf
.	.	.	12b-/J	.	.
=65	=65	=65	=65	=65	=65
4r	.	.	4B-`/	.	.
4r;	.	.	4r;	.	.
(8BB-/L	.	.	4r	.	pp
8BBB-/J)	.	.	.	.	.
=66	=66	=66	=66	=66	=66
4BB-'/	.	.	2.r	.	.
4BB-'/	.	.	.	.	.
4BB-'/	.	.	.	.	.
=67	=67	=67	=67	=67	=67
4BB-'/	.	.	2.r	.	.
4BB-'/	.	.	.	.	.
4BB-'/	.	.	.	.	.
=68	=68	=68	=68	=68	=68
!LO:TX:i:a:t=Początek Grzmotu.	!	!	!	!	!
8BB-/L	.	.	2.r	.	.
8AAn/	.	.	.	.	.
8BB-/	.	.	.	.	.
8AA/	.	.	.	.	.
8BB-/	.	.	.	.	.
8AA/J	.	.	.	.	.
=69	=69	=69	=69	=69	=69
8BB-/L	.	.	2.r	.	<
8AAn/	.	.	.	.	.
8BB-/	.	.	.	.	.
8AA/	.	.	.	.	.
8BB-/	.	.	.	.	.
8AA/J	.	.	.	.	.
=70	=70	=70	=70	=70	=70
16qqBB-/LL	.	.	.	.	.
16qqC-/JJ	.	.	.	.	.
2.D-TT\	.	.	2.r	.	[[
=71	=71	=71	=71	=71	=71
2.D-ttt\	.	.	2.d-T/	.	>
16qqBB-/LL	.	.	16qqB-/LL	.	]
16qqC-/JJ	.	.	16qqc-/JJ	.	]]
=72	=72	=72	=72	=72	=72
4BB-;</	.	.	4B-;/	.	.
!LO:TX:i:a:t=Błyskawica powtórna.	!	!	!	!	!
4r	.	.	4r	.	.
!	!	!	!LO:TUP:a:problem:klamra łukowa	!	!
4r	.	.	12bbb-\L	.	.
.	.	.	12bb-\	.	sfz
.	.	.	12bbb-\J	.	.
=73	=73	=73	=73	=73	=73
2.r	.	.	4bb-`\	.	.
.	.	.	4r	.	.
!	!	!	!LO:TUP:a:problem:klamra łukowa	!	!
.	.	.	12bb-\L	.	.
.	.	.	12b-\	.	sfz
.	.	.	12bb-\J	.	.
!!LO:LB:g=original	!	!	!	!
=74	=74	=74	=74	=74	=74
2.r	.	.	4b-\	.	.
.	.	.	4r	.	.
!	!	!	!LO:TUP:b:problem:klamra łukowa	!	!
.	.	.	12b-/L	.	.
!	!	!	!	!	!LO:DY:a
.	.	.	12B-/	.	sfz
.	.	.	12b-/J	.	.
=75	=75	=75	=75	=75	=75
4r	.	.	4B-`/	.	.
4BBB-'/	.	.	4r	.	.
4BBB-'/	.	.	4r	.	.
=76	=76	=76	=76	=76	=76
4BBB-'/	.	.	2.r	.	.
4BBB-'/	.	.	.	.	.
4BBB-'/	.	.	.	.	.
=77	=77	=77	=77	=77	=77
!LO:TX:i:a:t=Grzmot coraz silniejszy	!	!	!	!	!
8BBB-/L	.	.	2.r	.	.
8AAAn/	.	.	.	.	.
8BBB-/	.	.	.	.	.
8AAA/	.	.	.	.	.
8BBB-/	.	.	.	.	.
8AAA/J	.	.	.	.	.
*	*	*	*clefF4	*	*
=78	=78	=78	=78	=78	=78
8BBB-/L	.	.	8BB-/L	.	<
8AAAn/	.	.	8AAn/	.	.
8BBB-/	.	.	8BB-/	.	.
8AAA/	.	.	8AA/	.	.
8BBB-/	.	.	8BB-/	.	.
8AAA/J	.	.	8AA/J	.	.
=79	=79	=79	=79	=79	=79
16qqBBB-/LL	.	.	16qqBB-/LL	.	.
16qqCC-/JJ	.	.	16qqC-/JJ	.	.
2.DD-TT/	.	.	2.D-TT\	.	[[
=80	=80	=80	=80	=80	=80
2.DD-ttt/	.	.	2.D-ttt\	.	>
16qqBBB-/LL	.	.	16qqBB-/LL	.	]
16qqCC-/JJ	.	.	16qqC-/JJ	.	]]
=81	=81	=81	=81	=81	=81
4BBB-/	.	.	4BB-/	.	.
4r	.	.	4r	.	.
4r	.	.	4r	.	.
=82	=82	=82	=82	=82	=82
2.r	.	.	2.r	.	.
*	*	*	*clefG2	*	*
!!LO:PB:g=original	!	!	!	!
=83	=83	=83	=83	=83	=83
*ped	*	*	*	*	*
4B->:\ 4d->: 4f>: 4b->:	.	.	4dd-:/ 4ff: 4bb-:	.	ppp
4r	.	.	4r	.	.
4r	.	.	4r	.	.
=	=	=	=	=	=
1r	.	.	1r	.	.
=84	=84	=84	=84	=84	=84
*	*	*	*Xtuplet	*	*
!	!	!	!LO:TX:i:b:t=Con tutta la forza.	!	!
!	!	!	!LO:TX:i:a:t=Piorun.	!	!
*ped	*	*	*	*	*
2.ryy	.	.	24BBB-</LL	.	.
.	.	.	24EE-</	.	.
.	.	.	24GG-X</	.	.
.	.	.	24AAn</	.	.
.	.	.	24C-</	.	.
.	.	.	24E-</	.	.
.	.	.	24G-</	.	.
.	.	.	24An</	.	.
.	.	.	24c-</	.	.
.	.	.	24e-\	.	.
.	.	.	24g-\	.	.
.	.	.	24an\	.	.
.	.	.	24cc-\	.	.
.	.	.	24ee-\	.	.
.	.	.	24gg-\	.	.
.	.	.	24aan\	.	.
.	.	.	24ccc-\	.	.
.	.	.	24eee-\JJ	.	.
*	*	*	*tuplet	*	*
=85	=85	=85	=85	=85	=85
4r	.	.	4ggg-`\	.	.
4r	.	.	4r	.	.
4BB-`\ 4C- 4E- 4G-X 4An	.	.	4c-`>/ 4e- 4g-X 4an	.	.
*Xped	*	*	*	*	*
=86	=86	=86	=86	=86	=86
*ped	*	*	*	*	*
4BB-`\ 4D- 4F 4B-	.	.	4d-`>:/ 4f: 4b-:	.	.
4r	.	.	4r	.	.
4r	.	.	4r	.	.
=87	=87	=87	=87	=87	=87
4B->:\ 4d->: 4f>: 4b->:	.	.	4dd-`:/ 4ff: 4bb-:	.	.
4r	.	.	4r	.	.
4r	.	.	4r	.	.
=88	=88	=88	=88	=88	=88
4BBB-;<:\ 4DD-: 4FF: 4BB-:	.	.	4D-<;>:/ 4F<: 4B-<:	.	.
4r	.	.	4r	.	.
4r	.	.	4r	.	.
*Xped	*	*	*	*	*
!!LO:LB:g=original	!	!	!	!
=89||	=89||	=89||	=89||	=89||	=89||
*k[dngncnb-e-a-]	*	*	*k[dngncnb-e-a-]	*	*
!	!	!	!LO:TX:i:a:t=Deszcz powolny.	!	!
16B-\LL	.	.	16b-/LL	.	pp
16d\	.	.	16f/	.	.
!	!	!	!LO:TX:B:b:t=Poco a poco il Tempo va crescendo	!	!
16B-\	.	.	16b-/	.	.
16d\JJ	.	.	16f/JJ	.	.
16B-\LL	.	.	16b-/LL	.	.
16d\	.	.	16f/	.	.
16B-\	.	.	16b-/	.	.
16d\JJ	.	.	16f/JJ	.	.
16B-\LL	.	.	16b-/LL	.	.
16d\	.	.	16f/	.	.
16B-\	.	.	16b-/	.	.
16d\JJ	.	.	16f/JJ	.	.
=90	=90	=90	=90	=90	=90
16B-\LL	.	.	16b-/LL	.	.
16d\	.	.	16f/	.	.
16B-\	.	.	16b-/	.	.
16d\JJ	.	.	16f/JJ	.	.
16B-\LL	.	.	16b-/LL	.	.
16d\	.	.	16f/	.	.
16B-\	.	.	16b-/	.	.
16d\JJ	.	.	16f/JJ	.	.
16B-\LL	.	.	16b-/LL	.	.
16d\	.	.	16f/	.	.
16B-\	.	.	16b-/	.	.
16d\JJ	.	.	16f/JJ	.	.
=91	=91	=91	=91	=91	=91
16B-\LL	.	.	16cc-X/LL	.	.
16e-\	.	.	16g-X/	.	.
16B-\	.	.	16cc-/	.	.
16e-\JJ	.	.	16g-/JJ	.	.
16B-\LL	.	.	16cc-/LL	.	.
16e-\	.	.	16g-/	.	.
16B-\	.	.	16cc-/	.	.
16e-\JJ	.	.	16g-/JJ	.	.
16B-\LL	.	.	16cc-/LL	.	.
16e-\	.	.	16g-/	.	.
16B-\	.	.	16cc-/	.	.
16e-\JJ	.	.	16g-/JJ	.	.
=92	=92	=92	=92	=92	=92
16B-\LL	.	.	16cc-X/LL	.	.
16e-\	.	.	16g-X/	.	.
16B-\	.	.	16cc-/	.	.
16e-\JJ	.	.	16g-/JJ	.	.
16B-\LL	.	.	16cc-/LL	.	.
16e-\	.	.	16g-/	.	.
16B-\	.	.	16cc-/	.	.
16e-\JJ	.	.	16g-/JJ	.	.
16B-\LL	.	.	16cc-/LL	.	.
16e-\	.	.	16g-/	.	.
16B-\	.	.	16cc-/	.	.
16e-\JJ	.	.	16g-/JJ	.	.
!!LO:LB:g=original	!	!	!	!
=93	=93	=93	=93	=93	=93
!	!	!	!LO:TX:i:a:t=Wzmagający się.	!	!
!	!	!	!LO:TX:b:t=poco_a_poco_cre_scen_do:dur=42s:ext=ud:problem:text with extention lines	!	!
16B-\LL	.	.	16ccn/LL	.	<
16en\	.	.	16gn/	.	.
16B-\	.	.	16cc/	.	.
16e\JJ	.	.	16g/JJ	.	.
16B-\LL	.	.	16cc/LL	.	.
16e\	.	.	16g/	.	.
16B-\	.	.	16cc/	.	.
16e\JJ	.	.	16g/JJ	.	.
16B-\LL	.	.	16cc/LL	.	.
16e\	.	.	16g/	.	.
16B-\	.	.	16cc/	.	.
16e\JJ	.	.	16g/JJ	.	.
=94	=94	=94	=94	=94	=94
16B-\LL	.	.	16cc/LL	.	.
16en\	.	.	16g/	.	.
16B-\	.	.	16cc/	.	.
16e\JJ	.	.	16g/JJ	.	.
16B-\LL	.	.	16cc/LL	.	.
16e\	.	.	16g/	.	.
16B-\	.	.	16cc/	.	.
16e\JJ	.	.	16g/JJ	.	.
16B-\LL	.	.	16cc/LL	.	.
16e\	.	.	16g/	.	.
16B-\	.	.	16cc/	.	.
16e\JJ	.	.	16g/JJ	.	.
=95	=95	=95	=95	=95	=95
16B-\LL	.	.	16dd-X/LL	.	.
16f\	.	.	16a-/	.	.
16B-\	.	.	16dd-/	.	.
16f\JJ	.	.	16a-/JJ	.	.
16B-\LL	.	.	16dd-/LL	.	.
16f\	.	.	16a-/	.	.
16B-\	.	.	16dd-/	.	.
16f\JJ	.	.	16a-/JJ	.	.
16B-\LL	.	.	16dd-/LL	.	.
16f\	.	.	16a-/	.	.
16B-\	.	.	16dd-/	.	.
16f\JJ	.	.	16a-/JJ	.	.
=96	=96	=96	=96	=96	=96
16B-\LL	.	.	16ddn/LL	.	.
16f\	.	.	16a-/	.	.
16B-\	.	.	16dd/	.	.
16f\JJ	.	.	16a-/JJ	.	.
16B-\LL	.	.	16dd/LL	.	.
16f\	.	.	16a-/	.	[[
16B-\	.	.	16dd/	.	.
16f\JJ	.	.	16a-/JJ	.	.
16B-\LL	.	.	16dd/LL	.	.
16f\	.	.	16a-/	.	.
16B-\	.	.	16dd/	.	.
16f\JJ	.	.	16a-/JJ	.	.
!!LO:LB:g=original	!	!	!	!
=97	=97	=97	=97	=97	=97
!	!	!	!LO:TX:i:a:t=Ulewny.	!	!
16B-\LL	.	.	16ee-\LL	.	.
16g\	.	.	16b-\	.	.
16B-\	.	.	16ee-\	.	.
16g\JJ	.	.	16b-\JJ	.	.
16B-\LL	.	.	16ee-\LL	.	.
16g\	.	.	16b-\	.	.
16B-\	.	.	16ee-\	.	.
16g\JJ	.	.	16b-\JJ	.	.
16B-\LL	.	.	16ee-\LL	.	f
16g\	.	.	16b-\	.	.
16B-\	.	.	16ee-\	.	.
16g\JJ	.	.	16b-\JJ	.	.
=98	=98	=98	=98	=98	=98
16B-\LL	.	.	16een\LL	.	.
16c#X\	.	.	16b-\	.	.
16B-\	.	.	16ee\	.	.
16c#\JJ	.	.	16b-\JJ	.	.
16B-\LL	.	.	16ee\LL	.	.
16c#\	.	.	16b-\	.	.
16B-\	.	.	16ee\	.	.
16c#\JJ	.	.	16b-\JJ	.	.
16B-\LL	.	.	16ee\LL	.	.
16c#\	.	.	16b-\	.	.
16B-\	.	.	16ee\	.	.
16c#\JJ	.	.	16b-\JJ	.	.
=99	=99	=99	=99	=99	=99
!	!	!	!LO:TX:i:b:t=piu	!	!
16B-\LL	.	.	16ff\LL	.	.
16d\	.	.	16b-\	.	.
16B-\	.	.	16ff\	.	f
16d\JJ	.	.	16b-\JJ	.	.
16B-\LL	.	.	16ff\LL	.	.
16d\	.	.	16b-\	.	.
16B-\	.	.	16ff\	.	.
16d\JJ	.	.	16b-\JJ	.	.
16B-\LL	.	.	16ff#X\LL	.	.
16d\	.	.	16b-\	.	.
16B-\	.	.	16ff#\	.	.
16d\JJ	.	.	16b-\JJ	.	.
=100	=100	=100	=100	=100	=100
16B-\LL	.	.	16gg\LL	.	.
16e-\	.	.	16b-\	.	.
16B-\	.	.	16gg\	.	.
16e-\JJ	.	.	16b-\JJ	.	.
16B-\LL	.	.	16gg\LL	.	.
16e-\	.	.	16b-\	.	.
16B-\	.	.	16gg\	.	.
16e-\JJ	.	.	16b-\JJ	.	.
16B-\LL	.	.	16gg\LL	.	.
16en\	.	.	16cc#X\	.	.
16B-\	.	.	16gg\	.	.
16e\JJ	.	.	16cc#\JJ	.	.
!!LO:LB:g=original	!	!	!	!
=101	=101	=101	=101	=101	=101
!	!	!	!LO:TX:i:a:t=Burzliwy.	!	!LO:HP:a
16B-\LL	.	.	16aa-\LL	.	>
16f\	.	.	16dd\	.	.
16B-\	.	.	16aa-\	.	.
16f\JJ	.	.	16dd\JJ	.	]
16B-\LL	.	.	16aa-\LL	.	ff
16f\	.	.	16dd\	.	.
16B-\	.	.	16aa-\	.	.
16f\JJ	.	.	16dd\JJ	.	.
16B-\LL	.	.	16gg\LL	.	.
16en\	.	.	16cc#X\	.	.
16B-\	.	.	16gg\	.	.
16e\JJ	.	.	16cc#\JJ	.	.
=102	=102	=102	=102	=102	=102
!	!	!	!	!	!LO:HP:a
16B-\LL	.	.	16aa-\LL	.	>
16f\	.	.	16dd\	.	.
16B-\	.	.	16aa-\	.	.
16f\JJ	.	.	16dd\JJ	.	]
16B-\LL	.	.	16aa-\LL	.	.
16f\	.	.	16dd\	.	.
16B-\	.	.	16aa-\	.	.
16f\JJ	.	.	16dd\JJ	.	.
16B-\LL	.	.	16gg\LL	.	.
16en\	.	.	16cc#X\	.	.
16B-\	.	.	16gg\	.	.
16e\JJ	.	.	16cc#\JJ	.	.
=103	=103	=103	=103	=103	=103
!	!	!	!	!	!LO:HP:a
16B-\LL	.	.	16aa-\LL	.	>
16f\	.	.	16dd\	.	.
16B-\	.	.	16aa-\	.	.
16f\JJ	.	.	16dd\JJ	.	]
16B-\LL	.	.	16aa-\LL	.	.
16f\	.	.	16dd\	.	.
16B-\	.	.	16aa-\	.	.
16f\JJ	.	.	16dd\JJ	.	.
16B-\LL	.	.	16gg\LL	.	.
16en\	.	.	16cc#X\	.	.
16B-\	.	.	16gg\	.	.
16e\JJ	.	.	16cc#\JJ	.	.
=104	=104	=104	=104	=104	=104
!	!	!	!	!	!LO:HP:a
16B-\LL	.	.	16aa-\LL	.	>
16f\	.	.	16dd\	.	.
16B-\	.	.	16aa-\	.	.
16f\JJ	.	.	16dd\JJ	.	]
16B-\LL	.	.	16aa-\LL	.	.
16f\	.	.	16dd\	.	.
16B-\	.	.	16aa-\	.	.
16f\JJ	.	.	16dd\JJ	.	.
16B-\LL	.	.	16gg\LL	.	.
16en\	.	.	16cc#X\	.	.
16B-\	.	.	16gg\	.	.
16e\JJ	.	.	16cc#\JJ	.	.
!!LO:LB:g=original	!	!	!	!
=105	=105	=105	=105	=105	=105
!	!	!	!LO:TX:i:a:t=Ustający.	!	!
!	!	!	!LO:TX:b:t=de_cre_scen_do:dur=48s:ext=ud:problem:text with extention lines	!	!
16B-\LL	.	.	16aa-\LL	.	>
16f\	.	.	16dd\	.	.
16B-\	.	.	16aa-\	.	.
16f\JJ	.	.	16dd\JJ	.	.
16B-\LL	.	.	16aa-\LL	.	.
16f\	.	.	16dd\	.	.
16B-\	.	.	16aa-\	.	.
16f\JJ	.	.	16dd\JJ	.	.
16B-\LL	.	.	16aa-\LL	.	.
16f\	.	.	16dd\	.	.
16B-\	.	.	16aa-\	.	.
16f\JJ	.	.	16dd\JJ	.	.
=106	=106	=106	=106	=106	=106
16B-\LL	.	.	16ff\LL	.	.
16a-\	.	.	16dd\	.	.
16B-\	.	.	16ff\	.	.
16a-\JJ	.	.	16dd\JJ	.	.
16B-\LL	.	.	16ff\LL	.	.
16a-\	.	.	16dd\	.	.
16B-\	.	.	16ff\	.	.
16a-\JJ	.	.	16dd\JJ	.	.
16B-\LL	.	.	16ff\LL	.	.
16a-\	.	.	16dd\	.	.
16B-\	.	.	16ff\	.	.
16a-\JJ	.	.	16dd\JJ	.	.
=107	=107	=107	=107	=107	=107
16B-\LL	.	.	16dd/LL	.	.
16f\	.	.	16a-/	.	.
16B-\	.	.	16dd/	.	.
16f\JJ	.	.	16a-/JJ	.	.
16B-\LL	.	.	16dd/LL	.	.
16f\	.	.	16a-/	.	.
16B-\	.	.	16dd/	.	.
16f\JJ	.	.	16a-/JJ	.	.
16B-\LL	.	.	16dd/LL	.	.
16f\	.	.	16a-/	.	.
16B-\	.	.	16dd/	.	.
16f\JJ	.	.	16a-/JJ	.	.
!!LO:PB:g=original	!	!	!	!
=108	=108	=108	=108	=108	=108
16B-\LL	.	.	16b-/LL	.	.
16d\	.	.	16a-/	.	.
16B-\	.	.	16b-/	.	.
16d\JJ	.	.	16a-/JJ	.	.
16B-\LL	.	.	16b-/LL	.	.
16d\	.	.	16a-/	.	.
16B-\	.	.	16b-/	.	.
16d\JJ	.	.	16a-/JJ	.	.
16B-\LL	.	.	16b-/LL	.	.
16d\	.	.	16a-/	.	.
16B-\	.	.	16b-/	.	.
16d\JJ	.	.	16a-/JJ	.	]
=109	=109	=109	=109	=109	=109
4BB-/	.	.	16an/LL	.	.
.	.	.	16b-/	.	.
.	.	.	16a/	.	.
.	.	.	16b-/JJ	.	.
4r	.	.	16a/LL	.	.
.	.	.	16b-/	.	.
.	.	.	16a/	.	.
.	.	.	16b-/JJ	.	.
4r	.	.	16a/LL	.	.
.	.	.	16b-/	.	.
.	.	.	16a/	.	.
.	.	.	16b-/JJ	.	.
=110	=110	=110	=110	=110	=110
!	!	!	!LO:TX:b:t=e_per_den_do:dur=36s:ext=ud:problem:text with extention lines	!	!
2.r	.	.	16cc\LL	.	.
.	.	.	16b-\	.	.
.	.	.	16cc\	.	.
.	.	.	16b-\JJ	.	.
.	.	.	16cc\LL	.	.
.	.	.	16b-\	.	.
.	.	.	16cc\	.	.
.	.	.	16b-\JJ	.	.
.	.	.	16cc\LL	.	.
.	.	.	16b-\	.	.
.	.	.	16cc\	.	.
.	.	.	16b-\JJ	.	.
=111	=111	=111	=111	=111	=111
!	!	!	!LO:TX:i:a:t=Zupełnie.	!	!
2.r	.	.	16an/LL	.	.
.	.	.	16b-/	.	.
.	.	.	16a/	.	.
.	.	.	16b-/JJ	.	.
.	.	.	16a/LL	.	.
.	.	.	16b-/	.	.
.	.	.	16a/	.	.
.	.	.	16b-/JJ	.	.
.	.	.	16a/LL	.	.
.	.	.	16b-/	.	.
.	.	.	16a/	.	.
.	.	.	16b-/JJ	.	.
=112	=112	=112	=112	=112	=112
2.r	.	.	16cc-X\LL	.	.
.	.	.	16b-\	.	.
.	.	.	16cc-\	.	.
.	.	.	16b-\JJ	.	.
.	.	.	16cc-\LL	.	.
.	.	.	16b-\	.	.
.	.	.	16cc-\	.	.
.	.	.	16b-\JJ	.	.
.	.	.	16cc-\LL	.	.
.	.	.	16b-\	.	.
.	.	.	16cc-\	.	.
.	.	.	16b-\JJ	.	.
=113	=113	=113	=113	=113	=113
!LO:TX:i:a:t=Grzmot w oddaleniu.	!	!	!	!	!
!	!	!LO:DY:a	!	!	!
16AAn/LL	.	pp	2.r	.	.
16BB-/	.	.	.	.	.
16AA/	.	.	.	.	.
16BB-/JJ	.	.	.	.	.
16AA/LL	.	.	.	.	.
16BB-/	.	.	.	.	.
16AA/	.	.	.	.	.
16BB-/JJ	.	.	.	.	.
16AA/LL	.	.	.	.	.
16BB-/	.	.	.	.	.
16AA/	.	.	.	.	.
16BB-/JJ	.	.	.	.	.
=114	=114	=114	=114	=114	=114
*tremolo	*	*	*	*	*
(32C/LLL	.	.	2.r	.	.
32BB-/	.	.	.	.	.
32C/	.	.	.	.	.
32BB-/	.	.	.	.	.
32C/	.	.	.	.	.
32BB-/	.	.	.	.	.
32C/	.	.	.	.	.
32BB-/	.	.	.	.	.
32C/	.	.	.	.	.
32BB-/	.	.	.	.	.
32C/	.	.	.	.	.
32BB-/	.	.	.	.	.
32C/	.	.	.	.	.
32BB-/	.	.	.	.	.
32C/	.	.	.	.	.
32BB-/	.	.	.	.	.
32C/	.	.	.	.	.
32BB-/	.	.	.	.	.
32C/	.	.	.	.	.
32BB-/	.	.	.	.	.
32C/	.	.	.	.	.
32BB-/	.	.	.	.	.
32C/	.	.	.	.	.
32BB-/JJJ	.	.	.	.	.
16qqAAn/LL	.	.	.	.	.
16qqBB-/JJ)	.	.	.	.	.
=115	=115	=115	=115	=115	=115
!	!	!LO:DY:a	!	!	!
4BBB-/	.	ppp	2.r	.	.
4r	.	.	.	.	.
4r	.	.	.	.	.
=116	=116	=116	=116	=116	=116
2.r	.	.	2.r	.	.
!!LO:LB:g=original	!	!	!	!	!
=117||	=117||	=117||	=117||	=117||	=117||
*	*	*	*^	*	*
!	!	!	!LO:TX:i:b:t=dolce e legato	!	!	!
!	!	!	!LO:TX:i:a:t=Wyjaśnia i wypogadza się.	!	!	!
!	!	!	!LO:TX:B:a:t=Intermezzo poco Lento.	!	!	!
4C/	.	.	(2a-/	(2e-\	.	.
4c\	.	.	.	.	.	.
4B-\	.	.	4g/)	4e-\)	.	.
=118	=118	=118	=118	=118	=118	=118
4A-\	.	.	(2cc/	(2e-\	.	.
4AA-/	.	.	.	.	.	.
4G\	.	.	4b-/)	4e-\)	.	.
=119	=119	=119	=119	=119	=119	=119
*^	*	*	*	*	*	*
2B-/	4F\	.	.	(2dd/	(2a-\	.	<
.	4BB-\	.	.	.	.	.	.
4B-/	4E-\	.	.	4ee-/)	4g\)	.	.
=120	=120	=120	=120	=120	=120	=120	=120
2.B-/	4D\	.	.	(4ff/	4a-\	.	.
.	4BB-\	.	.	4b-/	4d\	.	.
.	4D\	.	.	4a-/)	4f\	.	.
=121	=121	=121	=121	=121	=121	=121	=121
2B-/	4E-\	.	.	(4g/	2e-\	.	.
.	[>4G\	.	.	[2b-/	.	.	.
4G/]	4En\	.	.	.	4d-X\	.	.
=122	=122	=122	=122	=122	=122	=122	=122
!	!	!	!	!	!	!	!LO:HP:b:t=dim.
2A-/	2F\	.	.	4b-/]	2c\	.	>
.	.	.	.	4a-/	.	.	.
4A-/	4AA-\	.	.	4f/)	4c\	.	.
=123	=123	=123	=123	=123	=123	=123	=123
4G'/	4BB-\	.	.	4e-'/	4B-\	.	.
4r	4ryy	.	.	4r	4ryy	.	.
4r	4ryy	.	.	4r	4ryy	.	.
=124	=124	=124	=124	=124	=124	=124	=124
4F'/	4BB-\	.	.	4d-X'/	4A-\	.	.
4r;	4ryy	.	.	4r;	4ryy	.	.
4r	4ryy	.	.	8.bb-'\L	4ryy	.	p
.	.	.	.	16bb-'\Jk	.	.	.
*v	*v	*	*	*	*	*	*
*	*	*	*v	*v	*	*
!!LO:LB:g=original	!	!	!	!	!
=125||	=125||	=125||	=125||	=125||	=125||
!	!	!	!LO:TX:i:b:t=Przepiórka.	!	!
!	!	!	!LO:TX:B:a:t=Risvegliato e piu vivo.	!	!
2.r	.	.	4bb-^^\	.	<
.	.	.	4r	.	.
.	.	.	8.bb-'\L	.	.
.	.	.	16bb-'\Jk	.	.
=126	=126	=126	=126	=126	=126
2.r	.	.	4bb-^^\	.	.
.	.	.	4r	.	.
.	.	.	8.bb-'\L	.	.
.	.	.	16bb-'\Jk	.	.
=127	=127	=127	=127	=127	=127
2.r	.	.	4bb-^^\	.	.
.	.	.	4r	.	.
.	.	.	8.bb-'\L	.	.
.	.	.	16bb-'\Jk	.	.
=128	=128	=128	=128	=128	=128
2.r	.	.	4bb-^^\	.	.
.	.	.	4r	.	.
.	.	.	8.bb-'\L	.	.
.	.	.	16bb-'\Jk	.	[[
*clefG2	*	*	*	*	*
=129	=129	=129	=129	=129	=129
!	!	!	!LO:TX:i:b:t=i Kukułka.	!	!
4dd'\	.	.	4bb-^^\	.	>
4b-'\	.	.	4r	.	.
!	!	!	!LO:TX:i:a:t=Przepiórki Artykulacya druga.	!	!
4r	.	.	(8ccc\L	.	.
.	.	.	8bb-\J)	.	.
=130	=130	=130	=130	=130	=130
4dd'\	.	.	(8ccc\L	.	.
.	.	.	8bb-\J)	.	.
4b-'\	.	.	4r	.	.
4r	.	.	(8ccc\L	.	.
.	.	.	8bb-\J)	.	.
=131	=131	=131	=131	=131	=131
*Xtremolo	*	*	*	*	*
8dd'\L	.	.	(8ccc\L	.	.
8dd'\J	.	.	8bb-\J)	.	.
4b-'\	.	.	4r	.	.
4r	.	.	(8ccc\L	.	.
.	.	.	8bb-\J)	.	.
!!LO:LB:g=original	!	!	!	!	!
=132	=132	=132	=132	=132	=132
4dd'\	.	.	(8ccc\L	.	.
.	.	.	8bb-\J)	.	.
4b-'\	.	.	4r	.	.
4r	.	.	(16bbb-\KL	.	.
.	.	.	8.bb-\J)	.	]]
=133	=133	=133	=133	=133	=133
4dd'\	.	.	(16bbb-\KL	.	<
.	.	.	8.bb-\J)	.	.
4b-'\	.	.	4r	.	.
4r	.	.	(16bbb-\KL	.	.
.	.	.	8.bb-\J)	.	.
=134	=134	=134	=134	=134	=134
4dd'\	.	.	(16bbb-\KL	.	.
.	.	.	8.bb-\J)	.	.
4b-'\	.	.	4r	.	.
4r	.	.	(16bbb-\KL	.	.
.	.	.	8.bb-\J)	.	.
=135	=135	=135	=135	=135	=135
2.r	.	.	(16bbb-\KL	.	.
.	.	.	8.bb-\J)	.	.
.	.	.	4r	.	.
.	.	.	(16bbb-\KL	.	.
.	.	.	8.bb-\J)	.	.
=136	=136	=136	=136	=136	=136
2.r	.	.	(16bbb-\KL	.	.
.	.	.	8.bb-\J)	.	.
.	.	.	4r	.	.
.	.	.	8qbbb-/	.	.
.	.	.	4bb-`\	.	[[
=137	=137	=137	=137	=137	=137
!	!	!	!LO:TX:i:b:t=Słowika Artykulacya 1a.	!	!
.	.	.	8qbbb-/	.	>
2.r	.	.	4bb-\	.	.
.	.	.	8qbbb-/	.	.
.	.	.	4bb-\	.	.
.	.	.	8qbbb-/	.	.
.	.	.	4bb-\	.	.
=138	=138	=138	=138	=138	=138
.	.	.	8qbbb-/	.	.
2.r	.	.	4bb-\	.	.
.	.	.	8qbbb-/	.	.
.	.	.	4bb-\	.	.
.	.	.	8qbbb-/	.	.
.	.	.	4bb-\	.	.
!!LO:LB:g=original	!	!	!	!	!
=139	=139	=139	=139	=139	=139
.	.	.	8qbbb-/	.	.
2.r	.	.	4bb-\	.	.
.	.	.	8qbbb-/	.	.
.	.	.	4bb-\	.	.
.	.	.	8qbbb-/	.	.
.	.	.	4bb-\	.	.
=140	=140	=140	=140	=140	=140
.	.	.	8qbbb-/	.	.
2.r	.	.	4bb-\	.	.
.	.	.	8qbbb-/	.	.
.	.	.	4bb-\	.	.
.	.	.	8qbbb-/	.	.
.	.	.	4bb-\	.	]]
=141	=141	=141	=141	=141	=141
!	!	!	!LO:TX:i:b:t=i 2ga	!	!
4dd'\	.	.	2.bb-TT\	.	<
4b-'\	.	.	.	.	.
4r	.	.	.	.	.
=142	=142	=142	=142	=142	=142
4dd'\	.	.	2.bb-ttt\	.	.
4b-'\	.	.	.	.	.
4r	.	.	.	.	.
=143	=143	=143	=143	=143	=143
8dd'\L	.	.	2.bb-ttt\	.	.
8dd'\J	.	.	.	.	.
4b-'\	.	.	.	.	.
4r	.	.	.	.	.
=144	=144	=144	=144	=144	=144
4dd'\	.	.	2.bb-ttt\	.	.
4b-'\	.	.	.	.	.
4r	.	.	.	.	[[
=145	=145	=145	=145	=145	=145
2.r	.	.	2.bb-ttt\	.	>
=146	=146	=146	=146	=146	=146
2.r	.	.	2.bb-ttt\	.	.
=147	=147	=147	=147	=147	=147
2.r	.	.	2.bb-ttt\	.	.
.	.	.	16qqaan/LL	.	]
.	.	.	16qqbb-/JJ	.	]]
=148	=148	=148	=148	=148	=148
2.r;	.	.	4bbb-`\	.	.
.	.	.	4r	.	.
.	.	.	4r;	.	.
*clefF4	*	*	*	*	*
!!LO:PB:g=original	!	!	!	!	!
=149||	=149||	=149||	=149||	=149||	=149||
!	!	!	!LO:TX:i:b:t=Radość i wesołość wiejska.	!	!
!	!	!	!LO:TX:i:a:t=dolce	!	!
!	!	!	!LO:TX:B:a:t=Allegretto giocoso e grazioso.	!	!
4EE-/ 4E-	.	.	(8bb-\L	.	.
.	.	.	8ccc\	.	.
4B-\ 4e- 4g	.	.	8bb-\	.	.
.	.	.	8gg\	.	.
4B-\ 4e- 4g	.	.	8ee-\	.	.
.	.	.	8gg\J)	.	.
=150	=150	=150	=150	=150	=150
4E-\	.	.	4b-`\	.	.
4B-\ 4e- 4g	.	.	4.gg\	.	.
4B-\ 4e- 4g	.	.	.	.	.
.	.	.	8aa-`\	.	.
=151	=151	=151	=151	=151	=151
4BB-\ 4B-	.	.	(2.gg^^\	.	.
4B-\ 4d 4f 4a-	.	.	.	.	.
4B-\ 4d 4f 4a-	.	.	.	.	.
=152	=152	=152	=152	=152	=152
4BB-\ 4B-	.	.	2.ffTT\)	.	.
4B-\ 4d 4f 4a-	.	.	.	.	.
4B-\ 4d 4f 4a-	.	.	.	.	.
.	.	.	16qqeen/LL	.	.
.	.	.	16qqff/JJ	.	.
=153	=153	=153	=153	=153	=153
4BB-\ 4B-	.	.	(8bb-\L	.	.
.	.	.	8ccc\	.	.
4B-\ 4d 4f 4a-	.	.	8bb-\	.	.
.	.	.	8aa-\	.	.
4B-\ 4d 4f 4a-	.	.	8ff\	.	.
.	.	.	8aa-\J)	.	.
=154	=154	=154	=154	=154	=154
4BB-\ 4B-	.	.	4b-`\	.	.
4B-\ 4d 4f 4a-	.	.	4.ff\	.	.
4B-\ 4d 4f 4a-	.	.	.	.	.
.	.	.	8gg`\	.	.
=155	=155	=155	=155	=155	=155
4E-\	.	.	(2.ff^^\	.	.
4B-\ 4e- 4g	.	.	.	.	.
4B-\ 4e- 4g	.	.	.	.	.
=156	=156	=156	=156	=156	=156
4E-\	.	.	2.ee-TT\)	.	.
4B-\ 4e- 4g	.	.	.	.	.
4B-\ 4e- 4g	.	.	.	.	.
.	.	.	16qqdd/LL	.	.
.	.	.	16qqee-/JJ	.	.
=157	=157	=157	=157	=157	=157
4GG\ 4G	.	.	(8eee-\L	.	.
.	.	.	8fff\	.	.
4G\ 4B- 4e-	.	.	8eee-\	.	.
.	.	.	8bb-\	.	.
4G\ 4B- 4e-	.	.	8gg\	.	.
.	.	.	8bb-\J)	.	.
!!LO:LB:g=original	!	!	!	!	!
=158	=158	=158	=158	=158	=158
4GG\ 4G	.	.	4ee-`\	.	.
4G\ 4B- 4e-	.	.	4.gg\	.	.
4G\ 4B- 4e-	.	.	.	.	.
.	.	.	8aa-`\	.	.
=159	=159	=159	=159	=159	=159
4AA-\ 4A-	.	.	(2.gg^^\	.	.
4A-\ 4c 4e- 4f	.	.	.	.	.
4A-\ 4c 4e- 4f	.	.	.	.	.
=160	=160	=160	=160	=160	=160
4AA-\ 4A-	.	.	2.ffTT\)	.	.
4A-\ 4c 4e- 4f	.	.	.	.	.
4A-\ 4c 4e- 4f	.	.	.	.	.
.	.	.	16qqeen/LL	.	.
.	.	.	16qqff/JJ	.	.
=161	=161	=161	=161	=161	=161
4BB-\ 4B-	.	.	(8aa-\L	.	.
.	.	.	8bb-\	.	.
4B-\ 4d 4f 4a-	.	.	8aa-\	.	.
.	.	.	8ff\	.	.
4B-\ 4d 4f 4a-	.	.	8dd\	.	.
.	.	.	8ff\J)	.	.
=162	=162	=162	=162	=162	=162
4BB-\ 4B-	.	.	4b-`\	.	.
4B-\ 4d 4f 4a-	.	.	4.ff\	.	.
4B-\ 4d 4f 4a-	.	.	.	.	.
.	.	.	8gg`\	.	.
=163	=163	=163	=163	=163	=163
4E-\ 4e-	.	.	(2.ff^^\	.	.
4B-\ 4e- 4g	.	.	.	.	.
4B-\ 4e- 4g	.	.	.	.	.
=164	=164	=164	=164	=164	=164
4E-\ 4e-	.	.	2.ee-TT\)	.	.
4B-\ 4e- 4g	.	.	.	.	.
4B-\ 4e- 4g	.	.	.	.	.
.	.	.	16qqdd/LL	.	.
.	.	.	16qqee-/JJ	.	.
=165:|!|:	=165:|!|:	=165:|!|:	=165:|!|:	=165:|!|:	=165:|!|:
*k[anb-e-]	*	*	*k[anb-e-]	*	*
.	.	.	8qeen/	.	f
4BB-\ 4B-	.	.	4f`\ 4ff	.	.
.	.	.	8qee/	.	.
4F\ 4B- 4d	.	.	4f`\ 4ff	.	.
.	.	.	8qee/	.	.
4F\ 4B- 4d	.	.	4f`\ 4ff	.	.
=166	=166	=166	=166	=166	=166
4BB-\ 4B-	.	.	(8dd\L	.	.
.	.	.	8b-\	.	.
4F\ 4B- 4d	.	.	8f\	.	.
.	.	.	8b-\	.	.
4F\ 4B- 4d	.	.	8dd\	.	.
.	.	.	8ee-\J)	.	.
=167	=167	=167	=167	=167	=167
4FF/ 4F	.	.	(2ddtt\	.	.
4F\ 4A 4c 4e-	.	.	.	.	.
4F\ 4A 4c 4e-	.	.	4cc\)	.	.
!!LO:LB:g=original	!	!	!	!	!
=168	=168	=168	=168	=168	=168
4FF/ 4F	.	.	(2dddtt\	.	.
4F\ 4A 4c 4e-	.	.	.	.	.
4F\ 4A 4c 4e-	.	.	4ccc\)	.	.
=169	=169	=169	=169	=169	=169
.	.	.	8qeen/	.	.
4FF/ 4F	.	.	4f`\ 4ff	.	.
.	.	.	8qee/	.	.
4F\ 4A 4c 4e-	.	.	4f`\ 4ff	.	.
.	.	.	8qee/	.	.
4F\ 4A 4c 4e-	.	.	4f`\ 4ff	.	.
=170	=170	=170	=170	=170	=170
4FF/ 4F	.	.	(8cc/L	.	.
.	.	.	8a/	.	.
4F\ 4A 4c 4e-	.	.	8f/	.	.
.	.	.	8a/	.	.
4F\ 4A 4c 4e-	.	.	8cc/	.	.
.	.	.	8dd/J)	.	.
=171	=171	=171	=171	=171	=171
4BB-\ 4B-	.	.	(2ccTT\	.	.
4F\ 4B- 4d	.	.	.	.	.
4F\ 4B- 4d	.	.	4b-\)	.	.
=172	=172	=172	=172	=172	=172
4BB-\ 4B-	.	.	(2cccTT\	.	.
4F\ 4B- 4d	.	.	.	.	.
4F\ 4B- 4d	.	.	4bb-\)	.	.
=173	=173	=173	=173	=173	=173
.	.	.	8qaa/	.	.
4D\	.	.	4b-`\ 4bb-	.	.
.	.	.	8qaa/	.	.
4B-\ 4f	.	.	4b-`\ 4bb-	.	.
.	.	.	8qaa/	.	.
4B-\ 4f	.	.	4b-`\ 4bb-	.	.
=174	=174	=174	=174	=174	=174
4D\	.	.	(8dd\L	.	.
.	.	.	8b-\	.	.
4F\ 4B- 4d	.	.	8f\	.	.
.	.	.	8b-\	.	.
4F\ 4B- 4d	.	.	8dd\	.	.
.	.	.	8ee-\J)	.	.
=175	=175	=175	=175	=175	=175
4E-\	.	.	(2ddtt\	.	.
4B-\ 4c 4g	.	.	.	.	.
4B-\ 4c 4g	.	.	4cc\)	.	.
=176	=176	=176	=176	=176	=176
4E-\	.	.	(2dddtt\	.	.
4B-\ 4c 4g	.	.	.	.	.
4B-\ 4c 4g	.	.	4ccc\)	.	.
!!LO:LB:g=original	!	!	!	!	!
=177	=177	=177	=177	=177	=177
4F\	.	.	(8eee-\L	.	.
.	.	.	8fff\	.	.
4A\ 4c 4e- 4f	.	.	8eee-\	.	.
.	.	.	8ccc\	.	.
4A\ 4c 4e- 4f	.	.	8aa\	.	.
.	.	.	8ff\J)	.	.
=178	=178	=178	=178	=178	=178
4F\	.	.	(8ee-\L	.	.
.	.	.	8cc\	.	.
4A\ 4c 4e-	.	.	8a\	.	.
.	.	.	8f\	.	.
4A\ 4c 4e-	.	.	8dd\	.	.
.	.	.	8cc\J)	.	.
=179	=179	=179	=179	=179	=179
4BB-/	.	.	(2ccTT\	.	.
4F\ 4B- 4d	.	.	.	.	.
4F\ 4B- 4d	.	.	4b-\)	.	.
=180	=180	=180	=180	=180	=180
4BB-/	.	.	(2cccTT\	.	.
4F\ 4B- 4d	.	.	.	.	.
4F\ 4B- 4d	.	.	4bb-\)	.	.
=181:|!	=181:|!	=181:|!	=181:|!	=181:|!	=181:|!
*k[b-e-a-]	*	*	*k[b-e-a-]	*	*
!	!	!	!LO:TX:i:b:t=dolce	!	!
4EE-/ 4E-	.	.	(8bb-\L	.	.
.	.	.	8ccc\	.	.
4B-\ 4e- 4g	.	.	8bb-\	.	.
.	.	.	8gg\	.	.
4B-\ 4e- 4g	.	.	8ee-\	.	.
.	.	.	8gg\J)	.	.
=182	=182	=182	=182	=182	=182
4E-\	.	.	4b-`\	.	.
4B-\ 4e- 4g	.	.	4.gg\	.	.
4B-\ 4e- 4g	.	.	.	.	.
.	.	.	8aa-`\	.	.
=183	=183	=183	=183	=183	=183
4BB-\ 4B-	.	.	(2.gg^^\	.	.
4B-\ 4d 4f 4a-	.	.	.	.	.
4B-\ 4d 4f 4a-	.	.	.	.	.
=184	=184	=184	=184	=184	=184
4BB-\ 4B-	.	.	2.ffTT\)	.	.
4B-\ 4d 4f 4a-	.	.	.	.	.
4B-\ 4d 4f 4a-	.	.	.	.	.
.	.	.	16qqeen/LL	.	.
.	.	.	16qqff/JJ	.	.
=185	=185	=185	=185	=185	=185
4BB-\ 4B-	.	.	(8bb-\L	.	.
.	.	.	8ccc\	.	.
4B-\ 4d 4f 4a-	.	.	8bb-\	.	.
.	.	.	8aa-\	.	.
4B-\ 4d 4f 4a-	.	.	8ff\	.	.
.	.	.	8aa-\J)	.	.
!!LO:LB:g=original	!	!	!	!	!
=186	=186	=186	=186	=186	=186
4BB-\ 4B-	.	.	4b-`\	.	.
4B-\ 4d 4f 4a-	.	.	4.ff\	.	.
4B-\ 4d 4f 4a-	.	.	.	.	.
.	.	.	8gg`\	.	.
=187	=187	=187	=187	=187	=187
4E-\	.	.	(2.ff^^\	.	.
4B-\ 4e- 4g	.	.	.	.	.
4B-\ 4e- 4g	.	.	.	.	.
=188	=188	=188	=188	=188	=188
4E-\	.	.	2.ee-TT\)	.	.
4B-\ 4e- 4g	.	.	.	.	.
4B-\ 4e- 4g	.	.	.	.	.
.	.	.	16qqdd/LL	.	.
.	.	.	16qqee-/JJ	.	.
=189	=189	=189	=189	=189	=189
4GG\ 4G	.	.	(8eee-\L	.	<
.	.	.	8fff\	.	.
4G\ 4B- 4e-	.	.	8eee-\	.	.
.	.	.	8bb-\	.	.
4G\ 4B- 4e-	.	.	8gg\	.	.
.	.	.	8bb-\J)	.	.
=190	=190	=190	=190	=190	=190
4GG\ 4G	.	.	4ee-`\	.	.
4G\ 4B- 4e-	.	.	4.gg\	.	.
4G\ 4B- 4e-	.	.	.	.	.
.	.	.	8aa-`\	.	.
=191	=191	=191	=191	=191	=191
4AA-\ 4A-	.	.	(2.gg^^\	.	.
4A-\ 4c 4e- 4f	.	.	.	.	.
4A-\ 4c 4e- 4f	.	.	.	.	.
=192	=192	=192	=192	=192	=192
4AA-\ 4A-	.	.	2.ffTT\)	.	.
4A-\ 4c 4e- 4f	.	.	.	.	.
4A-\ 4c 4e- 4f	.	.	.	.	.
.	.	.	16qqeen/LL	.	.
.	.	.	16qqff/JJ	.	.
=193	=193	=193	=193	=193	=193
4BB-\ 4B-	.	.	(8aa-\L	.	.
.	.	.	8bb-\	.	.
4B-\ 4d 4f 4a-	.	.	8aa-\	.	.
.	.	.	8ff\	.	.
4B-\ 4d 4f 4a-	.	.	8dd\	.	.
.	.	.	8ff\J)	.	.
=194	=194	=194	=194	=194	=194
4BB-\ 4B-	.	.	4b-`\	.	.
4B-\ 4d 4f 4a-	.	.	4.ff\	.	.
4B-\ 4d 4f 4a-	.	.	.	.	.
.	.	.	8gg`\	.	.
=195	=195	=195	=195	=195	=195
4E-\ 4e-	.	.	(2ff^^\	.	.
4B-\ 4e- 4g	.	.	.	.	.
4B-\ 4e- 4g	.	.	4ee-\)	.	.
!!LO:LB:g=original	!	!	!	!	!
=196	=196	=196	=196	=196	=196
4D-X\ 4d-X	.	.	2ffTT\	.	.
4B-\ 4e- 4g	.	.	.	.	.
4B-\ 4e- 4g	.	.	4ee-\	.	.
=197	=197	=197	=197	=197	=197
4C\ 4c	.	.	2ffTT\	.	.
4c\ 4e- 4a-	.	.	.	.	.
4c\ 4e- 4a-	.	.	[4ee-\	.	.
=198	=198	=198	=198	=198	=198
4BB-\ 4B-	.	.	8ee-/L]	.	.
.	.	.	8dd-X/	.	.
4B-\ 4d-X 4e-	.	.	8b-/	.	.
.	.	.	8g/	.	.
4B-\ 4d-	.	.	8.e-/	.	.
.	.	.	16e-/Jk	.	.
=199!|:	=199!|:	=199!|:	=199!|:	=199!|:	=199!|:
*k[b-e-a-d-]	*	*	*k[b-e-a-d-]	*	*
*	*	*	*^	*	*
4AA-`/	.	.	(8a-/L	8c\L	1 3	.
.	.	.	8b-/)	8e-\	2 4	.
4E-\ 4A- 4c	.	.	8cc'/	8a-\	3 5	.
.	.	.	8dd-'/	8b-\	2 4	.
4E-\ 4A- 4c	.	.	8ee-'/	8cc\	1 3	.
.	.	.	8ff'/J	8dd-\J	.	.
=200	=200	=200	=200	=200	=200	=200
4AA-`/	.	.	(8ee-/L	8cc\L	1 3	.
.	.	.	8ff/J)	8dd-\J	.	.
4E-\ 4A- 4c	.	.	4ee-`/	4cc\	.	.
4E-\ 4A- 4c	.	.	(8aa-/L	4cc\	.	.
.	.	.	8bb-/J)	.	.	.
=201	=201	=201	=201	=201	=201	=201
!	!	!	!LO:TX:i:b:t=Cieląt	!	!	!LO:HP:a
4e-`\	.	<	(2aa-:/	2b-:\ 2dd-:	.	>
(4Dn\ 4dn	.	.	.	.	.	.
4E-\) 4e-	.	[	4gg/)	4r	.	]
=202	=202	=202	=202	=202	=202	=202
!	!	!	!LO:TX:i:b:t=Krów	!	!	!LO:HP:a
4r	.	<	(2a-:/	2B-:\ 2d-:	.	>
(4DDn/ 4Dn	.	.	.	.	.	.
4EE-/) 4E-	.	[	4g/)	4r	.	]
!!LO:PB:g=original	!	!	!	!	!	!
=203	=203	=203	=203	=203	=203	=203
4EE-`/	.	.	(8e-/L	4e-\	2	.
.	.	.	8f/)	.	.	.
4E-\ 4B- 4d-	.	.	8g'/	8e-\L	2 4	.
.	.	.	8a-'/	8f\	1 3	.
4E-\ 4B- 4d-	.	.	8b-'/	8g\	2 4	.
.	.	.	8cc'/J	8a-\J	3 5	.
=204	=204	=204	=204	=204	=204	=204
4EE-`/	.	.	(>8dd-/L	8b-\L	2 4	.
.	.	.	8cc/J)	8an\J	.	.
4E-\ 4B- 4d-	.	.	4dd-/	4b-\	.	.
4E-\ 4B- 4d-	.	.	(8ff/L	4g\	.	.
.	.	.	8ee-/J)	.	.	.
=205	=205	=205	=205	=205	=205	=205
!	!	!	!	!	!	!LO:HP:a
4A-`\	.	.	(2dd-:/	2e-:\ 2a-:	.	>
!LO:TX:i:a:t=Wołów	!	!	!	!	!	!
(4GG\ 4G	.	<	.	.	.	.
4AA-\) 4A-	.	[	4cc/)	4r	.	]
=206	=206	=206	=206	=206	=206	=206
!	!	!	!	!	!	!LO:HP:a
4r	.	.	(2d-:/	2E-:\ 2A-:	.	>
(4GGG/ 4GG	.	<	.	.	.	.
4AAA-/) 4AA-	.	[	4c/)	4r	.	]
=207	=207	=207	=207	=207	=207	=207
!	!	!	!LO:TX:i:a:t=Głosy różnej Rogacizny	!	!	!
4C`/	.	.	(8a-/L	8a-\L	2	.
.	.	.	8b-/)	8e-\	1 3	.
4A-\ 4e-	.	.	8cc'/	8a-\	2 4	.
.	.	.	8dd-'/	8b-\	3 5	.
4A-\ 4e-	.	.	8ee-'/	8cc\	1 3	.
.	.	.	8ff'/J	8dd-\J	.	.
=208	=208	=208	=208	=208	=208	=208
4FF`/	.	.	(8ee-/L	8cc\L	1 3	.
.	.	.	8ff/)	8dd-\	.	.
4F\ 4c 4e-	.	.	8ee-'/	8cc\	1 3	.
.	.	.	8cc'/	8an\	2 4	.
4F\ 4c 4e-	.	.	8a-X'/	8f\	1 2	.
.	.	.	8ff'/J	8a-\J	.	.
=209	=209	=209	=209	=209	=209	=209
!	!	!	!	!	!	!LO:HP:a
4B-`\ 4d-	.	.	(2ee-:/	2f:\ 2b-:	.	>
(4AAAn/ 4AAn	.	<	.	.	.	.
4BBB-/) 4BB-	.	[	4dd-/)	4r	.	]
!!LO:LB:g=original	!	!	!	!	!	!
=210	=210	=210	=210	=210	=210	=210
!	!	!	!	!	!	!LO:HP:a
4r	.	.	(2cc:/	2d-:\ 2f:	.	>
(4CC/ 4C	.	<	.	.	.	.
4DD-/) 4D-	.	[	4b-/)	4r	.	]
=211	=211	=211	=211	=211	=211	=211
4EE-/	.	.	4a-/	8a-\L	3	.
.	.	.	.	8e-\	1	.
4E-\ 4A- 4c	.	.	(8a-/L	8a-\	2	.
.	.	.	8b-/	8e-\	1 3	.
4E-\ 4A- 4c	.	.	8cc/	8a-\	2 4	.
.	.	.	8dd-/J)	8e-\J	.	.
=212	=212	=212	=212	=212	=212	=212
4EE-/	.	.	(4cc/	8a-\L	.	.
.	.	.	.	8e-\	.	.
4E-\ 4B- 4d-	.	.	4.b-^^/	8g\	2 4	.
.	.	.	.	8e-\	.	.
4E-\ 4B- 4d-	.	.	.	8g\	.	.
.	.	.	8cc`/)	8e-\J	.	.
*	*	*	*v	*v	*	*
=213	=213	=213	=213	=213	=213
*^	*	*	*	*	*
*>A1	*>A1	*>A1	*>A1	*>A1	*>A1	*>A1
!LO:N:vis=2	!	!	!	!	!	!
(<8AA-/L	2.AA-\	.	.	(2.d-:/ [2.e-: (2.g: (2.b-:	.	.
8E-/	.	.	<	.	.	.
8F/	.	.	.	.	.	.
8E-/	.	.	.	.	.	.
8G/	.	.	.	.	.	.
8E-/J)	.	.	[	.	.	.
*v	*v	*	*	*	*	*
=214	=214	=214	=214	=214	=214
4A-`\	.	.	4c/) 4e-)] 4a-)	.	.
(4GGG/ 4GG	.	<	4r	.	.
4AAA-/) 4AA-	.	[	4r	.	.
=215:|!	=215:|!	=215:|!	=215:|!	=215:|!	=215:|!
*^	*	*	*	*	*
*>A2	*>A2	*>A2	*>A2	*>A2	*>A2	*>A2
!LO:N:vis=2	!	!	!	!	!	!
(<8AA-/L	2.AA-\	.	<	(2.d-:/ [2.e-: (2.g: (2.b-:	.	.
8E-/	.	.	.	.	.	.
8F/	.	.	.	.	.	.
8E-/	.	.	.	.	.	.
8G/	.	.	.	.	.	.
8E-/J)	.	.	[	.	.	.
*v	*v	*	*	*	*	*
=216	=216	=216	=216	=216	=216
4A-`\	.	.	4c/) 4e-)] 4a-)	.	.
4AA-`/	.	.	4r	.	.
4r	.	.	(16e-/LL	.	.
.	.	.	16dn/	.	.
.	.	.	16e-/	.	.
.	.	.	16d/JJ)	.	.
!!LO:LB:g=original	!	!	!	!	!
=217||	=217||	=217||	=217||	=217||	=217||
*>B	*>B	*>B	*>B	*>B	*>B
!	!	!	!LO:TX:i:a:t=Wrzawa różnej Trzody coraz wieksza.	!	!
4E-\	.	.	4e-/	.	p
4EE-/	.	.	4r	.	.
!	!	!	!LO:TX:i:a:t=Kóz	!	!
4r	.	.	(16e-/LL	.	.
.	.	.	16dn/	.	.
.	.	.	16e-/	.	.
.	.	.	16d/JJ)	.	.
=218	=218	=218	=218	=218	=218
*^	*	*	*^	*	*
!	!	!	!	!LO:TX:b:t=ma_poco_a_poco_cresc._sempre_più_f:dur=6q20s:ext=ud:problem:text with extention lines	!	!	!
4E-^^\ 4G	4ryy	.	.	4e-/	4ryy	.	<
4EE-`>/	4ryy	.	.	4r	4ryy	.	.
!LO:TX:i:b:t=Baranów	!	!	!	!LO:TX:i:a:t=starszych	!	!	!
16B-/LL	[4E-\	.	.	16g/LL	[4e-\	.	.
16An/	.	.	.	16f#X/	.	.	.
16B-/	.	.	.	16g/	.	.	.
16A/JJ	.	.	.	16f#/JJ	.	.	.
=219	=219	=219	=219	=219	=219	=219	=219
4B-^^/	4E-\]	.	.	4g`/	4e-\]	.	.
4EE-`>/	4ryy	.	.	4r	4ryy	.	.
!	!	!	!	!LO:TX:i:a:t=młodszych.	!	!	!
16d-/LL	[4E-\	.	.	16g/LL 16b-	4ryy	.	.
16c/	.	.	.	16f#X/ 16an	.	.	.
16d-/	.	.	.	16g/ 16b-	.	.	.
!LO:TX:i:b:t=Owiec	!	!	!	!	!	!	!
16c/JJ	.	.	.	16f#/JJ 16a	.	.	.
=220	=220	=220	=220	=220	=220	=220	=220
4d-^^/	4E-\]	.	.	4b-`/	4g\	.	.
4EE-`>/	4ryy	.	.	4r	4ryy	.	.
*clefG2	*	*	*	*	*	*	*
16g/LL	[4e-\	.	.	(16b-'\LL 16dd-	4ryy	.	.
16f#X/	.	.	.	16an\ 16cc	.	.	.
16g/	.	.	.	16b-\ 16dd-	.	.	.
16f#/JJ	.	.	.	16a\JJ) 16cc	.	.	.
=221	=221	=221	=221	=221	=221	=221	=221
4g^^/	4e-\]	.	.	4dd-`/	4b-\	.	.
4E-`>/	4ryy	.	.	4r	4ryy	.	.
!	!	!	!	!LO:TX:i:a:t=Koźląt	!	!	!
16b-/LL	[4e-\	.	.	(16dd-\LL	4ryy	.	.
16an/	.	.	.	16cc\	.	.	.
16b-/	.	.	.	16dd-\	.	.	.
16a/JJ	.	.	.	16cc\JJ)	.	.	.
*	*	*	*	*v	*v	*	*
=222	=222	=222	=222	=222	=222	=222
4b-^^/	4e-\]	.	.	4dd-`\	.	.
4E-`>/	4ryy	.	.	4r	.	.
16b-/LL	[4e-\	.	.	(16dd-\LL 16gg	.	.
16an/	.	.	.	16cc\ 16ff#X	.	.
16b-/	.	.	.	16dd-\ 16gg	.	.
16a/JJ	.	.	.	16cc\JJ) 16ff#	.	[[
!!LO:LB:g=original	!	!	!	!	!	!
=223	=223	=223	=223	=223	=223	=223
!LO:TX:i:b:t=i Jagniątek	!	!	!	!	!	!
4b-^^/	4e-\]	.	.	4dd-`\ 4gg	.	.
4E-`>/	4ryy	.	.	4r	.	.
!	!	!	!	!LO:TX:i:a:t=i Koźlątek	!	!
16dd-/LL	[4e-\	.	.	(16gg\LL 16bb-	.	f
16cc/	.	.	.	16ff#X\ 16aan	.	.
16dd-/	.	.	.	16gg\ 16bb-	.	.
16cc/JJ	.	.	.	16ff#\JJ) 16aa	.	.
=224	=224	=224	=224	=224	=224	=224
4dd-^^/	4e-\]	.	.	4gg`\ 4bb-	.	.
4E-`>/	4ryy	.	.	4r	.	.
16gg/LL	[4ee-\	.	.	(16bb-\LL 16ddd-	.	.
16ff#X/	.	.	.	16aan\ 16ccc	.	.
16gg/	.	.	.	16bb-\ 16ddd-	.	.
16ff#/JJ	.	.	.	16aa\JJ) 16ccc	.	.
=225	=225	=225	=225	=225	=225	=225
4gg^^/	4ee-\]	.	.	4bb-`\ 4ddd-	.	.
4E-`>/ 4e-	4ryy	.	.	4r	.	.
!	!	!	!	!	!	!LO:HP:a
4r	4r	.	.	(4d-'/ 4g 4dd-	.	<
*v	*v	*	*	*	*	*
*clefF4	*	*	*	*	*
=226	=226	=226	=226	=226	=226
!LO:TX:i:b:t=L&colon; i Konsortów\npo prostu Osłów	!	!	!	!	!
!	!	!LO:HP:a	!	!	!
4FF-X/ 4F-X	.	<	4d-'/) 4a- 4dd-	.	[
4F-X\ 4f-X	.	[	4r	.	.
!	!	!	!	!	!LO:HP:a
4r	.	.	(4d-'/ 4a- 4dd-	.	>
=227	=227	=227	=227	=227	=227
!	!	!LO:HP:a	!	!	!
4E-\ 4e-	.	>	4d-'/) 4g 4dd-	.	]
4EE-/ 4E-	.	]	4r	.	.
!	!	!	!	!	!LO:HP:a
4r	.	.	(4dd-'\ 4gg 4ddd-	.	<
*clefG2	*	*	*	*	*
=228	=228	=228	=228	=228	=228
!	!	!LO:HP:a	!	!	!
4F-X/ 4f-X	.	<	4dd-'\) 4aa- 4ddd-	.	[
4f-/ 4ff-X	.	[	4r	.	.
!	!	!	!	!	!LO:HP:a
4r	.	.	(4dd-'\ 4aa- 4ddd-	.	>
=229	=229	=229	=229	=229	=229
*ped	*	*	*	*	*
!	!	!LO:HP:a	!	!	!
4e-/ 4b-	.	>	4dd-'\) 4gg 4ddd-	.	]
4E-/ 4e-	.	]	4r	.	.
4r	.	.	(16ddd-\LL	.	.
.	.	.	16ccc\	.	.
.	.	.	16ddd-\	.	.
.	.	.	16ccc\JJ)	.	.
*Xped	*	*	*	*	*
!!LO:LB:g=original	!	!	!	!	!
=230	=230	=230	=230	=230	=230
*ped	*	*	*	*	*
!	!	!	!LO:TX:b:t=cresc._e e per_den_do:dur=5q16s:ext=ud:problem:text with extention lines	!	!
(4b-\ 4dd- 4ee- 4gg	.	.	4ddd-`\	.	<
4e-/)	.	.	4r	.	.
4r	.	.	(16bb-\LL	.	.
.	.	.	16aan\	.	.
.	.	.	16bb-\	.	.
.	.	.	16aa\JJ)	.	.
*Xped	*	*	*	*	*
=231	=231	=231	=231	=231	=231
*ped	*	*	*	*	*
!	!	!LO:DY:a	!	!	!
(4B-/ 4d- 4e- 4g	.	p	4bb-`\	.	.
4E-/)	.	.	4r	.	.
4r	.	.	(16gg\LL	.	.
.	.	.	16ff#X\	.	.
.	.	.	16gg\	.	.
.	.	.	16ff#\JJ)	.	.
*Xped	*	*	*	*	*
=232	=232	=232	=232	=232	=232
*ped	*	*	*	*	*
(4B-/ 4d- 4e- 4g	.	.	4gg`\	.	.
4E-/)	.	.	4r	.	.
4r	.	.	(16ee-\LL	.	.
.	.	.	16ddn\	.	.
.	.	.	16ee-\	.	.
.	.	.	16dd\JJ)	.	.
*clefF4	*	*	*	*	*
*Xped	*	*	*	*	*
=233	=233	=233	=233	=233	=233
*ped	*	*	*	*	*
(4BB-\ 4D- 4E- 4G	.	.	4ee-`\	.	.
4EE-/)	.	.	4r	.	.
4r	.	.	(16dd-X\LL	.	.
.	.	.	16cc\	.	.
.	.	.	16dd-\	.	.
.	.	.	16cc\JJ)	.	.
*Xped	*	*	*	*	*
=234	=234	=234	=234	=234	=234
2.r	.	.	4dd-`\	.	.
.	.	.	4r	.	[
.	.	.	(16b-/LL	.	.
.	.	.	16an/	.	.
.	.	.	16b-/	.	.
.	.	.	16a/JJ)	.	.
=235	=235	=235	=235	=235	=235
2.r	.	.	4b-`/	.	.
.	.	.	4r	.	.
.	.	.	(16g/LL	.	.
.	.	.	16f#X/	.	.
.	.	.	16g/	.	.
.	.	.	16f#/JJ)	.	.
=236	=236	=236	=236	=236	=236
2.r	.	.	4g`/	.	.
.	.	.	4r	.	.
.	.	.	(16e-/LL	.	.
.	.	.	16dn/	.	.
.	.	.	16e-/	.	.
.	.	.	16d/JJ)	.	.
!!LO:PB:g=original	!	!	!	!	!
=237||	=237||	=237||	=237||	=237||	=237||
*	*	*	*ped	*	*
!	!	!	!LO:TX:i:b:t=Dzwonki i Katakole drewniane\nna szyjach u bydła po stepach.	!	!
!	!	!	!LO:TX:B:a:t=a tempo.	!	!
2.r	.	.	2e-/	.	.
.	.	.	4e-/	.	.
=238	=238	=238	=238	=238	=238
2.r	.	.	2e-/	.	.
.	.	.	4e-/	.	.
=239	=239	=239	=239	=239	=239
2.r	.	.	2e-/	.	.
.	.	.	4e-/	.	.
=240	=240	=240	=240	=240	=240
2.r	.	.	2e-/	.	.
.	.	.	4e-/	.	.
*	*	*	*Xped	*	*
=241	=241	=241	=241	=241	=241
4r	.	.	2e-/ 2ee-	.	.
(4DDn/ 4Dn	.	.	.	.	.
!	!	!	!LO:TX:b:t=poco_a_poco_cre_scen_do_il_:dur=8q7h:ext=ud:problem:text with extention lines	!	!
4EE-/) 4E-	.	.	4e-/ 4ee-	.	<
=242	=242	=242	=242	=242	=242
(4FF-X/ 4F-X	.	.	2e-/ 2ee-	.	.
4EE-/ 4E-	.	.	.	.	.
!	!	!	!LO:TX:i:a:t=Ruch Bydła.	!	!
4FF-/) 4F-	.	.	4e-/ 4ee-	.	.
=243	=243	=243	=243	=243	=243
(4FFn/ 4Fn	.	.	2e-/ 2a- 2ee-	.	.
4EEn/ 4En	.	.	.	.	.
4FF/) 4F	.	.	4e-/ 4a- 4ee-	.	.
=244	=244	=244	=244	=244	=244
(4GG-X/ 4G-X	.	.	2e-/ 2an 2ee-	.	.
4FF/ 4F	.	.	.	.	.
4GG-/) 4G-	.	.	4e-/ 4a 4ee-	.	.
=245	=245	=245	=245	=245	=245
(4GGn/ 4Gn	.	.	2e-/ 2b- 2ee-	.	.
4FF#X/ 4F#X	.	.	.	.	.
4GG/) 4G	.	.	4e-/ 4b- 4ee-	.	.
=246	=246	=246	=246	=246	=246
(4GG/ 4G	.	.	2e-/ 2bn 2ee-	.	.
4FF#X/ 4F#X	.	.	.	.	.
4GG/) 4G	.	.	4e-/ 4b 4ee-	.	.
=247	=247	=247	=247	=247	=247
(4AA-/ 4A-	.	.	2e-/ 2cc 2ee-	.	.
4GG/ 4G	.	.	.	.	.
4AA-/) 4A-	.	.	4e-/ 4cc 4ee-	.	.
=248	=248	=248	=248	=248	=248
(4AAn/ 4An	.	.	2e-/ 2g-X 2cc 2ee-	.	.
4AA-X/ 4A-X	.	.	.	.	.
4AAn/) 4An	.	.	4e-/ 4f#X 4cc 4ee-	.	[[
!!LO:LB:g=original	!	!	!	!	!
=249	=249	=249	=249	=249	=249
2BB-;\ 2B-	.	.	2e-;\ 2g 2dd- [2ee-	.	ff
!	!	!	!LO:TX:i:b:t=dolce	!	!
4r	.	.	(16ee-\LL]	.	.
.	.	.	16dd-\	.	.
.	.	.	16b-\	.	.
.	.	.	16cc\JJ)	.	.
=250	=250	=250	=250	=250	=250
!	!	!	!LO:TX:i:b:t=Fujarka Pasterska.	!	!
!	!	!	!LO:TX:i:a:t=Cadenza in tempo.	!	!
2.r	.	.	(16ee-\LL	.	.
.	.	.	16dd-\	.	.
.	.	.	16b-\	.	.
.	.	.	16cc\JJ)	.	.
.	.	.	(16ee-\LL	.	.
.	.	.	16dd-\	.	.
.	.	.	16b-\	.	.
.	.	.	16cc\JJ)	.	.
.	.	.	(16ee-\LL	.	.
.	.	.	16dd-\	.	.
.	.	.	16b-\	.	.
.	.	.	16cc\JJ)	.	.
=251	=251	=251	=251	=251	=251
2.r	.	.	(16ee-\LL	.	.
.	.	.	16dd-\	.	.
.	.	.	16an\	.	.
.	.	.	16cc\JJ)	.	.
.	.	.	(16ee-\LL	.	.
.	.	.	16dd-\	.	.
.	.	.	16a\	.	.
.	.	.	16cc\JJ)	.	.
.	.	.	(16ee-\LL	.	.
.	.	.	16dd-\	.	.
.	.	.	16a\	.	.
.	.	.	16cc\JJ)	.	.
=252	=252	=252	=252	=252	=252
!	!	!	!LO:TX:i:b:t=slentando	!	!
2.r	.	.	(16ee-\LL	.	.
.	.	.	16dd-\	.	.
.	.	.	16b-\	.	.
.	.	.	16cc\JJ)	.	.
.	.	.	(16ee-\LL	.	.
.	.	.	16dd-\	.	.
.	.	.	16b-\	.	.
.	.	.	16cc\JJ)	.	.
.	.	.	(16ee-\LL	.	.
.	.	.	16dd-\	.	.
.	.	.	16b-\	.	.
.	.	.	16g\JJ)	.	.
=253	=253	=253	=253	=253	=253
2.r;	.	.	[2.e-;/	.	.
!!LO:LB:g=original	!	!	!	!	!
=254||	=254||	=254||	=254||	=254||	=254||
*k[b-e-a-d-g-c-f-]	*	*	*k[b-e-a-d-g-c-f-]	*	*
*	*	*	*^	*	*
!	!	!	!LO:TX:B:a:t=Minore.	!	!	!
!	!	!	!LO:TX:i:a:t=Pląsy Pastuchów po stepie.	!	!	!
4AA-`/	.	.	8.e-/L]	2.e-\	.	.
.	.	.	16gn'/K	.	.	.
4E-\ 4A- 4c-	.	.	(8a-M/	.	.	.
.	.	.	8g/	.	.	.
4E-\ 4A- 4c-	.	.	8a-/	.	.	.
.	.	.	8b-/J)	.	.	.
=255	=255	=255	=255	=255	=255	=255
4AA-`/	.	.	8.cc-'/L	2.e-'\	.	.
.	.	.	16b-'/K	.	.	.
4E-\ 4A- 4c-	.	.	(8a-M/	.	.	.
.	.	.	8gn/	.	.	.
4E-\ 4A- 4c-	.	.	8a-/	.	.	.
.	.	.	8b-/J)	.	.	.
=256	=256	=256	=256	=256	=256	=256
!	!	!	!	!	!	!LO:DY:a
4AA-`/	.	.	(16cc-/LL	4e-\	.	rf
.	.	.	16dd-/	.	.	.
.	.	.	16cc-/	.	.	.
.	.	.	16b-/JJ)	.	.	.
4E-\ 4A- 4c-	.	.	8a-/L	4r	.	.
.	.	.	8gn/	.	.	.
4E-\ 4A- 4c-	.	.	8a-/	4r	.	.
.	.	.	8b-/J	.	.	.
=257	=257	=257	=257	=257	=257	=257
!	!	!	!	!	!	!LO:HP:a
4AA-`/	.	.	8.cc-'/L	4e-\	.	<
.	.	.	16dd-'/Jk	.	.	.
4E-\ 4A- 4c-	.	.	4ee-/	[2e-\	.	.
4E-\ 4A- 4c-	.	.	4r	.	.	[
=258	=258	=258	=258	=258	=258	=258
4AA-`/	.	.	8.b-'/L	4e-\]	.	.
.	.	.	16cc-'/Jk	.	.	.
4E-\ 4Gn 4d-	.	.	4dd-M/	4e-\	.	.
4E-\ 4G 4d-	.	.	(8cc-/L	4e-\	.	.
.	.	.	8b-/J)	.	.	.
=259	=259	=259	=259	=259	=259	=259
!	!	!	!	!	!	!LO:DY:a
4AA-`/	.	.	8.cc-'/L	4e-\	.	rf
.	.	.	16b-'/K	.	.	.
4E-\ 4A- 4c-	.	.	8a-M/	4e-\	.	.
.	.	.	8gn/	.	.	.
4E-\ 4A- 4c-	.	.	8a-/	4e-\	.	.
.	.	.	8cc-/J	.	.	.
!!LO:LB:g=original	!	!	!	!	!	!
=260	=260	=260	=260	=260	=260	=260
4AA-`/	.	.	8.b-/L	4e-\	.	.
.	.	.	16gn/K	.	.	.
4E-\ 4Gn 4d-	.	.	8e-/	4e-\	.	.
.	.	.	8f-/	.	.	.
4E-\ 4G 4d-	.	.	8e-/	4e-\	.	.
.	.	.	8g/J	.	.	.
=261	=261	=261	=261	=261	=261	=261
!	!	!	!	!	!	!LO:HP:a
4AA-`/	.	.	(8a-/L	4e-\	.	>
.	.	.	8cc-/J)	.	.	.
4E-\ 4A- 4c-	.	.	4a-/	4e-\	.	]
4E-\ 4A- 4c-	.	.	4r	4r	.	.
*	*	*	*v	*v	*	*
=262	=262	=262	=262	=262	=262
4AA-`/	.	.	8.e-'/L	.	.
.	.	.	16gn'/K	.	.
4E-\ 4A- 4c-	.	.	(>8a-M/	.	.
.	.	.	8g/	.	.
4E-\ 4A- 4c-	.	.	8a-/	.	.
.	.	.	8b-/J)	.	.
=263	=263	=263	=263	=263	=263
*	*	*	*^	*	*
!	!	!	!	!	!	!LO:DY:a
4AA-`/	.	.	8.cc-'/L	2.e-\	.	rf
.	.	.	16b-'/K	.	.	.
4E-\ 4A- 4c-	.	.	(8a-M/	.	.	.
.	.	.	8gn/	.	.	.
4E-\ 4A- 4c-	.	.	8a-/	.	.	.
.	.	.	8b-/J)	.	.	.
=264	=264	=264	=264	=264	=264	=264
!	!	!	!	!	!	!LO:DY:a
4AA-`/	.	.	(16cc-/LL	4e-\	.	rf
.	.	.	16dd-/	.	.	.
.	.	.	16cc-/	.	.	.
.	.	.	16b-/JJ)	.	.	.
4E-\ 4A- 4c-	.	.	8a-/L	4r	.	.
.	.	.	8gn/	.	.	.
4E-\ 4A- 4c-	.	.	8a-/	4r	.	.
.	.	.	8b-/J	.	.	.
=265	=265	=265	=265	=265	=265	=265
!	!	!	!	!	!	!LO:HP:a
4AA-`/	.	.	8.cc-'/L	4e-\	.	<
.	.	.	16dd-'/Jk	.	.	.
4E-\ 4A- 4c-	.	.	4ee-/	[2e-\	.	.
4E-\ 4A- 4c-	.	.	4r	.	.	[
!!LO:LB:g=original	!	!	!	!	!	!
=266	=266	=266	=266	=266	=266	=266
4AA-`/	.	.	8.b-'/L	4e-\]	.	.
.	.	.	16cc-'/Jk	.	.	.
4E-\ 4Gn 4d-	.	.	4dd-M/	4e-\	.	.
4E-\ 4G 4d-	.	.	(8cc-/L	4e-\	.	.
.	.	.	8b-/J)	.	.	.
=267	=267	=267	=267	=267	=267	=267
!	!	!	!	!	!	!LO:DY:a
4AA-`/	.	.	8.cc-/L	4e-\	.	rf
.	.	.	16b-'/K	.	.	.
4E-\ 4A- 4c-	.	.	8a-M/	4e-\	.	.
.	.	.	8gn/	.	.	.
4E-\ 4A- 4c-	.	.	8a-/	4e-\	.	.
.	.	.	8cc-/J	.	.	.
=268	=268	=268	=268	=268	=268	=268
!	!	!	!	!	!	!LO:HP:a
4AA-`/	.	.	8.b-/L	4e-\	.	<
.	.	.	16gn/K	.	.	.
4E-\ 4Gn 4d-	.	.	8e-/	4e-\	.	.
.	.	.	8ee-/	.	.	.
4E-\ 4G 4d-	.	.	8b-/	4e-\	.	.
.	.	.	8cc-/J	.	.	.
=269	=269	=269	=269	=269	=269	=269
!	!	!	!	!	!	!LO:HP:a
4AA-`/	.	.	(8a-/L	4e-\	.	[ >
.	.	.	8cc-/J)	.	.	.
4E-\ 4A- 4c-	.	.	4a-/	4a-\	.	]
4r	.	.	4r	4ryy	.	.
*	*	*	*v	*v	*	*
=270||	=270||	=270||	=270||	=270||	=270||
!	!	!	!LO:TX:i:a:t=Echo.	!	!
2.r	.	.	(8a-/L	.	p
.	.	.	8cc-/J)	.	.
!	!	!	!LO:TX:i:b:t=possibile	!	!
.	.	.	4a-/	.	.
.	.	.	4r	.	.
=271	=271	=271	=271	=271	=271
2.r	.	.	(8a-/L	.	.
.	.	.	8cc-/J)	.	.
.	.	.	4a-/	.	.
.	.	.	4r	.	.
!!LO:PB:g=original	!	!	!	!	!
=272||	=272||	=272||	=272||	=272||	=272||
*k[b-e-a-d-]	*	*	*k[b-e-a-d-]	*	*
*	*	*	*ped	*	*
2.r	.	.	(8a-/L	.	.
.	.	.	8cc/J)	.	.
.	.	.	4a-/	.	.
.	.	.	4r	.	.
=273	=273	=273	=273	=273	=273
2.r	.	.	(8a-/L	.	.
.	.	.	8cc/J)	.	.
.	.	.	4a-/	.	.
.	.	.	4r	.	.
=274	=274	=274	=274	=274	=274
.	.	.	8qa-/	.	.
2.r	.	.	[2.aa-\	.	.
=275	=275	=275	=275	=275	=275
2.r	.	.	2aa-\]	.	.
.	.	.	8.aa-'\L	.	.
.	.	.	16aa-'\Jk	.	.
=276	=276	=276	=276	=276	=276
2.r	.	.	4aa-^^\	.	.
.	.	.	4r	.	.
!	!	!	!LO:TX:b:i:t=cresc._:ext=ud	!	!
.	.	.	8.aa-'\L	.	<
.	.	.	16aa-'\Jk	.	.
=277	=277	=277	=277	=277	=277
2.r	.	.	4aa-^^\	.	.
.	.	.	4r	.	.
.	.	.	8.aa-'\L	.	.
.	.	.	16aa-'\Jk	.	.
*clefG2	*	*	*	*	*
=278	=278	=278	=278	=278	=278
4cc'\	.	.	4aa-^^\	.	.
4a-'/	.	.	4r	.	[
4r	.	.	(8bb-\L	.	.
.	.	.	8aa-\J)	.	.
=279	=279	=279	=279	=279	=279
!	!	!	!LO:TX:b:i:t=decresc._:ext=ud	!	!
4cc'\	.	.	(8bb-\L	.	>
.	.	.	8aa-\J)	.	.
4a-'/	.	.	4r	.	.
4r	.	.	(8bb-\L	.	.
.	.	.	8aa-\J)	.	]]
!!LO:LB:g=original	!	!	!	!	!
=280	=280	=280	=280	=280	=280
4cc'\	.	.	(8bb-\L	.	.
.	.	.	8aa-\J)	.	.
4a-'/	.	.	4r	.	.
4r	.	.	(8bb-\L	.	.
.	.	.	8aa-\J)	.	.
=281	=281	=281	=281	=281	=281
.	.	.	8qgg/	.	.
2.r	.	.	4aa-`\	.	.
.	.	.	8qgg/	.	.
.	.	.	4aa-`\	.	.
.	.	.	8qgg/	.	.
.	.	.	4aa-`\	.	.
=282	=282	=282	=282	=282	=282
.	.	.	8qeee-/	.	.
2.r	.	.	4ee-`\	.	.
.	.	.	8qeee-/	.	.
.	.	.	4ee-`\	.	.
.	.	.	8qeee-/	.	.
.	.	.	4ee-`\	.	.
=283	=283	=283	=283	=283	=283
2.r	.	.	(16eee-\KL	.	.
.	.	.	8.ee-\J)	.	.
.	.	.	(16eee-\KL	.	.
.	.	.	8.ee-\J)	.	.
.	.	.	(16eee-\KL	.	.
.	.	.	8.ee-\J)	.	.
=284	=284	=284	=284	=284	=284
2.r	.	.	[2.ee-TT\	.	.
=285	=285	=285	=285	=285	=285
2.r	.	.	2.ee-ttt\]	.	.
.	.	.	16qqddn/LL	.	.
.	.	.	16qqee-/JJ	.	.
=286	=286	=286	=286	=286	=286
2.r	.	.	[2.e-/	.	.
=287	=287	=287	=287	=287	=287
2.r;	.	.	4e-;/]	.	.
.	.	.	4r	.	.
.	.	.	4r	.	.
*clefF4	*	*	*	*	*
!!LO:LB:g=original	!	!	!	!	!
=288||	=288||	=288||	=288||	=288||	=288||
*	*	*	*^	*	*
!	!	!	!LO:TX:i:a:t=Z Pola.	!	!	!
4AA-`/	.	.	4a-/	8c\L	1 4	.
.	.	.	.	8e-\	2	.
4E-\ 4A-	.	.	8a-'/L	8c\	1 3	.
.	.	.	8b-'/	8e-\	2 4	.
4E-\ 4A- 4c	.	.	8cc'/	8a-\	3 5	.
.	.	.	8dd-'/J	8b-\J	2 4	.
=289	=289	=289	=289	=289	=289	=289
4AA-`/	.	.	(8ee-/L	8cc\L	1 3	.
.	.	.	8ff/J)	8dd-\J	.	.
4E-\ 4A- 4c	.	.	4ee-'/	4cc\	.	.
4E-\ 4A- 4c	.	.	(8aa-/L	4cc\	.	.
.	.	.	8bb-/J)	.	.	.
=290	=290	=290	=290	=290	=290	=290
!	!	!	!	!	!	!LO:HP:a
4e-`\	.	.	(2aa-:/	2b-:\ 2dd-:	.	>
(4Dn\ 4dn	.	<	.	.	.	.
4E-\) 4e-	.	[[	4gg/)	4r	.	]
=291	=291	=291	=291	=291	=291	=291
!	!	!	!	!	!	!LO:HP:a
4r	.	.	(2a-:/	2B-:\ 2d-:	.	>
!	!	!LO:HP:a	!	!	!	!
(4DDn/ 4Dn	.	<	.	.	.	.
4EE-/) 4E-	.	[[	4g/)	4r	.	]
=292	=292	=292	=292	=292	=292	=292
4EE-`/	.	.	(8e-/L	4e-\	2	.
.	.	.	8f/)	.	.	.
4E-\ 4B- 4d-	.	.	8g'/	8e-\L	2 4	.
.	.	.	8a-'/	8f\	1 3	.
4E-\ 4B- 4d-	.	.	8b-'/	8g\	2 4	.
.	.	.	8cc'/J	8a-\J	3 5	.
!!LO:LB:g=original	!	!	!	!	!	!
=293	=293	=293	=293	=293	=293	=293
4EE-`/	.	.	(8dd-/L	8b-\L	2 4	.
.	.	.	8cc/J)	8an\J	.	.
4E-\ 4B- 4d-	.	.	4dd-`/	4b-\	.	.
4E-\ 4B- 4d-	.	.	(8ff/L	4g\	.	.
.	.	.	8ee-/J)	.	.	.
=294	=294	=294	=294	=294	=294	=294
!	!	!	!	!	!	!LO:HP:a
4A-`\	.	.	(2dd-:/	2e-:\ 2a-:	.	>
(4GG\ 4G	.	<	.	.	.	.
4AA-\) 4A-	.	[[	4cc/)	4r	.	]
=295	=295	=295	=295	=295	=295	=295
!	!	!	!	!	!	!LO:HP:a
4r	.	.	(>2d-:/	2E-<:/ 2A-<:	.	>
!	!	!LO:HP:a	!	!	!	!
(4GGG/ 4GG	.	<	.	.	.	.
4AAA-/) 4AA-	.	[[	4c/)	4r	.	]
=296	=296	=296	=296	=296	=296	=296
!	!	!	!LO:TX:i:a:t=Głosy różnej Rogacizny	!	!	!
4C`/	.	.	(8a-/L	8a-\L	2	.
.	.	.	8b-/)	8e-\	1 3	.
4A-\ 4e-	.	.	8cc'/	8a-\	2 4	.
.	.	.	8dd-'/	8b-\	3 5	.
4A-\ 4e-	.	.	8ee-'/	8cc\	1 3	.
.	.	.	8ff'/J	8dd-\J	2 4	.
=297	=297	=297	=297	=297	=297	=297
4FF`/	.	.	(8ee-/L	8cc\L	1 3	.
.	.	.	8ff/)	8dd-\	.	.
4F\ 4c 4e-	.	.	8ee-'/	8cc\	.	.
.	.	.	8cc'/	8an\	2 4	.
4F\ 4c 4e-	.	.	8a'/	8f\	1 2	.
.	.	.	8ff'/J	8a\J	.	.
!!LO:LB:g=original	!	!	!	!	!	!
=298	=298	=298	=298	=298	=298	=298
!	!	!	!	!	!	!LO:HP:a
4B-`\ 4d-	.	.	(2ee-:/	2f:\ 2b-:	.	>
(4AAAn/ 4AAn	.	<	.	.	.	.
4BBB-/) 4BB-	.	[[	4dd-/)	4r	.	]
=299	=299	=299	=299	=299	=299	=299
!	!	!	!	!	!	!LO:HP:a
4r	.	.	(2cc:/	2d-:\ 2f:	.	>
(4CC/ 4C	.	<	.	.	.	.
4DD-/) 4D-	.	[[	4b-/)	4r	.	]
=300	=300	=300	=300	=300	=300	=300
4EE-`/	.	.	4a-/	8a-\L	3	.
.	.	.	.	8e-\	1	.
4E-\ 4A- 4c	.	.	(8a-/L	8a-\	2	.
.	.	.	8b-/	8e-\	1 3	.
4E-\ 4A- 4c	.	.	8cc/	8a-\	2 4	.
.	.	.	8dd-/J)	8e-\J	1 5	.
=301	=301	=301	=301	=301	=301	=301
4EE-`/	.	.	(4cc/	8a-\L	.	.
.	.	.	.	8e-\	.	.
4E-\ 4B- 4d-	.	.	4.b-^^/	8g\	2 4	.
.	.	.	.	8e-\	.	.
4E-\ 4B- 4d-	.	.	.	8g\	.	.
.	.	.	8cc/)	8e-\J	.	.
*	*	*	*v	*v	*	*
=302	=302	=302	=302	=302	=302
*^	*	*	*	*	*
!LO:N:vis=2	!	!	!	!	!	!
(<8AA-/L	2.AA-\	.	<	(2.d-:/ [(2.e-: (2.g: (2.b-:	.	.
8E-/	.	.	.	.	.	.
8F/	.	.	.	.	.	.
8E-/	.	.	.	.	.	.
8G/	.	.	.	.	.	.
8E-/J)	.	.	[[	.	.	.
*v	*v	*	*	*	*	*
=303	=303	=303	=303	=303	=303
4A-\	.	.	4c/) 4e-)] 4a-)	.	.
4r	.	.	4r	.	.
4A-\	.	.	4r	.	.
!!LO:PB:g=original	!	!	!	!	!
=304||	=304||	=304||	=304||	=304||	=304||
!	!	!	!LO:TX:B:a:t=Fugato piu Moderato.	!	!
!	!	!	!LO:TX:i:a:t=Rozchód Bydła na Obory Wiejskie i Dworskie.	!	!
(4d-\	.	.	(4f/	.	.
4c\	.	.	4a-/	.	.
!LO:TX:i:a:t=Rogacizna wolniej.	!	!	!	!	!
4B-\)	.	.	[>4dd-/)	.	.
=305	=305	=305	=305	=305	=305
*	*	*	*^	*	*
(4E-\	.	.	2.dd-/]	4g\	.	.
4F\	.	.	.	8a-\L	.	.
.	.	.	.	8g\	.	.
4G\	.	.	.	8a-\	.	.
.	.	.	.	[8b-\J	.	.
=306	=306	=306	=306	=306	=306	=306
4A-\	.	.	[2.cc/	4b-\]	.	.
4B-\	.	.	.	4a-\	.	.
4c\)	.	.	.	4g\	.	.
=307	=307	=307	=307	=307	=307	=307
(4D-\	.	.	2.cc/]	4f\	.	.
4E-\	.	.	.	8g\L	.	.
.	.	.	.	8f\	.	.
4F\	.	.	.	8g\	.	.
.	.	.	.	[8a-\J	.	.
=308	=308	=308	=308	=308	=308	=308
4G\	.	.	[2.b-/	4a-\]	.	.
4A-\	.	.	.	4g\	.	.
4B-\)	.	.	.	4f\	.	.
=309	=309	=309	=309	=309	=309	=309
(4C\	.	.	2.b-/]	4en\	.	.
4Dn\	.	.	.	8f\L	.	.
.	.	.	.	8e\	.	.
4En\	.	.	.	8f\	.	.
.	.	.	.	8g\J	.	.
=310	=310	=310	=310	=310	=310	=310
4F\	.	.	2.a-/	4a-\	.	.
4G\	.	.	.	4g\	.	.
!LO:TX:i:a:t=Trzoda skorzej.	!	!	!	!	!	!
4A-\)	.	.	.	4f\	.	.
=311	=311	=311	=311	=311	=311	=311
(8G\L	.	.	2bn/	4d-\	.	.
8A-\	.	.	.	.	.	.
8G\	.	.	.	4g\	.	.
8F\	.	.	.	.	.	.
8E-\	.	.	4g/	[4g\	.	.
8Dn\J)	.	.	.	.	.	.
*	*	*	*v	*v	*	*
!!LO:LB:g=original	!	!	!	!	!
=312||	=312||	=312||	=312||	=312||	=312||
*k[andnb-e-]	*	*	*k[andnb-e-]	*	*
*	*	*	*^	*	*
(4E-\	.	.	4cc/	2.g\]	.	.
4D\	.	.	4dd/	.	.	.
4C\)	.	.	[4ee-/	.	.	.
=313	=313	=313	=313	=313	=313	=313
*^	*	*	*	*	*	*
!	!	!	!	!LO:TX:i:a:t=Rozpychające się Barany i Owce	!	!	!
4e-'/	4E-\	.	.	4ee-/]	2.g\	.	<
4d'/	4D\	.	.	4cc/	.	.	.
4c'/	4C\	.	.	4ee-/	.	.	[[
=314	=314	=314	=314	=314	=314	=314	=314
[2.d/	2D\	.	.	(8dd/L	2.f#X\	.	.
.	.	.	.	8ee-/	.	.	.
.	.	.	.	8dd/	.	.	.
.	.	.	.	8cc/	.	.	.
.	4F#X\	.	.	8b-/	.	.	.
.	.	.	.	8a/J)	.	.	.
=315	=315	=315	=315	=315	=315	=315	=315
2.d/]	4G\	.	.	2b-/	4b-\	.	.
.	4A\	.	.	.	[2g\	.	.
!	!	!	!	!LO:TX:i:a:t=jak zwyczajnie tłumem i kłusem.	!	!	!
.	4B-\	.	.	4gg/	.	.	.
=316	=316	=316	=316	=316	=316	=316	=316
2e-/	2c\	.	.	(8ee-/L	2.g\]	.	.
.	.	.	.	8ff/	.	.	.
.	.	.	.	8ee-/	.	.	.
.	.	.	.	8dd/	.	.	.
[4c/	4E-\	.	.	8cc/	.	.	.
.	.	.	.	8b-/J)	.	.	.
=317	=317	=317	=317	=317	=317	=317	=317
4c/]	4F\	.	.	4a/	8a\L	.	<
.	.	.	.	.	8f\	.	.
4G/	4GG\	.	.	4ff/	8b-\	.	.
.	.	.	.	.	8f\	.	.
4A/	4AA\	.	.	4ff/	8cc\	.	.
.	.	.	.	.	[8f\J	.	[[
=318	=318	=318	=318	=318	=318	=318	=318
[2.B-/	2BB-\	.	.	(8dd/L	2.f\]	.	.
.	.	.	.	8ee-/	.	.	.
.	.	.	.	8dd/	.	.	.
.	.	.	.	8cc/	.	.	.
.	4D\	.	.	8b-/	.	.	.
.	.	.	.	8a/J)	.	.	.
!!LO:LB:g=original	!	!	!	!	!	!	!
=319	=319	=319	=319	=319	=319	=319	=319
4B-/]	4E-\	.	.	4g/	8g\L	.	<
.	.	.	.	.	8e-\	.	.
4F/	4FF\	.	.	4ee-/	8a\	.	.
.	.	.	.	.	8e-\	.	.
4G/	4GG\	.	.	4ee-/	8b-\	.	.
.	.	.	.	.	[8e-\J	.	[[
=320	=320	=320	=320	=320	=320	=320	=320
[2.A/	2AA\	.	.	(8cc/L	2.e-\]	.	.
.	.	.	.	8dd/	.	.	.
.	.	.	.	8cc/	.	.	.
.	.	.	.	8b-/	.	.	.
.	4C\	.	.	8a/	.	.	.
.	.	.	.	8g/J)	.	.	.
=321	=321	=321	=321	=321	=321	=321	=321
4A/]	4D\	.	.	4f#X/	8f#\L	.	<
.	.	.	.	.	8d\	.	.
4En/	4EEn\	.	.	4dd/	8g\	.	.
.	.	.	.	.	8d\	.	.
4F#X/	4FF#X\	.	.	4dd/	8a\	.	.
.	.	.	.	.	8d\J	.	[[
=322||	=322||	=322||	=322||	=322||	=322||	=322||	=322||
!LO:TX:B:a:t=Tempo poco a poco tardando	!	!	!	!LO:TX:i:a:t=Podwieczór.	!	!	!LO:HP:a
(2.G/	(2.GG\	.	.	[2.dd^^/	(8b-\L	.	>
.	.	.	.	.	8d\	.	.
.	.	.	.	.	8g\	.	.
.	.	.	.	.	8b-\	.	.
.	.	.	.	.	8a\	.	.
.	.	.	.	.	8g\J)	.	.
=323	=323	=323	=323	=323	=323	=323	=323
4B-/)	4G\)	.	.	2.dd/]	8r	.	.
.	.	.	.	.	(8d\L	.	.
4r	4ryy	.	.	.	8g\	.	.
.	.	.	.	.	8b-\	.	.
4r	4ryy	.	.	.	8a\	.	.
.	.	.	.	.	8g\J)	.	]]
=324	=324	=324	=324	=324	=324	=324	=324
(2.G/	(2.GG\	.	.	[2.b-^^/	(8g\L	.	.
.	.	.	.	.	8d\	.	.
.	.	.	.	.	8g\	.	.
.	.	.	.	.	8b-\	.	.
.	.	.	.	.	8a\	.	.
.	.	.	.	.	8g\J)	.	.
!!LO:LB:g=original	!	!	!	!	!	!	!
=325	=325	=325	=325	=325	=325	=325	=325
4B-/)	4G\)	.	.	4b-/]	8r	.	.
.	.	.	.	.	(8d\L	.	.
4r	4ryy	.	.	4rff	8g\	.	.
.	.	.	.	.	8b-\	.	.
4r	4ryy	.	.	4r	8a\	.	.
.	.	.	.	.	8g\J)	.	.
=326	=326	=326	=326	=326	=326	=326	=326
!	!	!	!	!	!	!	!LO:HP:a
(2.E-/	(2.EE-\	.	.	[2.cc#X^^/	(8b-\L	.	>
.	.	.	.	.	8c#X\	.	.
.	.	.	.	.	8g\	.	.
.	.	.	.	.	8b-\	.	.
.	.	.	.	.	8a\	.	.
.	.	.	.	.	8g\J)	.	.
=327	=327	=327	=327	=327	=327	=327	=327
4G/)	4E-\)	.	.	2.cc#/]	8rc	.	.
.	.	.	.	.	(8c#X\L	.	.
4r	4ryy	.	.	.	8g\	.	.
.	.	.	.	.	8b-\	.	.
4r	4ryy	.	.	.	8a\	.	.
.	.	.	.	.	[8g\J)	.	]]
=328	=328	=328	=328	=328	=328	=328	=328
(2.E-/	(2.EE-\	.	.	[2.b-/	8g\L]	.	.
.	.	.	.	.	(<8c#X\	.	.
.	.	.	.	.	8g\	.	.
.	.	.	.	.	8b-\	.	.
.	.	.	.	.	8a\	.	.
.	.	.	.	.	8g\J)	.	.
=329	=329	=329	=329	=329	=329	=329	=329
4G/)	4E-\)	.	.	4b-/]	8rc	.	.
.	.	.	.	.	(8c#X\L	.	.
4r	4ryy	.	.	4rff	8g\	.	.
.	.	.	.	.	8b-\	.	.
4r	4ryy	.	.	4r	8a\	.	.
.	.	.	.	.	8g\J)	.	.
*	*	*	*	*v	*v	*	*
!!LO:LB:g=original	!	!	!	!	!	!
=330||	=330||	=330||	=330||	=330||	=330||	=330||
!	!	!	!	!LO:TX:i:a:t=Noc.	!	!
!	!	!	!	!LO:TX:B:a:t=Andante tenebroso.	!	!
[2.A/	[2.D\	.	.	(8f#X/L	.	pp
.	.	.	.	8d/	.	.
.	.	.	.	8f#/	.	.
.	.	.	.	8a/	.	.
.	.	.	.	8dd/	.	.
.	.	.	.	8d/J)	.	.
=331	=331	=331	=331	=331	=331	=331
4A/]	4D\]	.	.	(8dd/L	.	.
.	.	.	.	8d/	.	.
4r	4ryy	.	.	8f#X/	.	.
.	.	.	.	8a/	.	.
4r	4ryy	.	.	8dd/	.	.
.	.	.	.	8d/J)	.	.
=332	=332	=332	=332	=332	=332	=332
2.c/	2.C\	.	.	8r	.	.
.	.	.	.	(8d/L	.	.
.	.	.	.	8f#X/	.	.
.	.	.	.	8a/	.	.
.	.	.	.	8dd/	.	.
.	.	.	.	8d/J)	.	.
*v	*v	*	*	*	*	*
=333	=333	=333	=333	=333	=333
8qccc#X>/	.	.	.	.	.
4ddd>`>/	.	.	(8dd\L	.	.
!	!	!	!LO:TX:i:a:t=Gwiazda	!	!
.	.	.	8d\	.	.
4r	.	.	8f#X\	.	.
.	.	.	8a\	.	.
4r	.	.	8dd\	.	.
.	.	.	8d\J)	.	.
=334	=334	=334	=334	=334	=334
*^	*	*	*	*	*
2.B-/	2.BB-\	.	.	8r	.	.
.	.	.	.	(8d\L	.	.
.	.	.	.	8g\	.	.
.	.	.	.	8b-\	.	.
.	.	.	.	8dd\	.	.
.	.	.	.	8d\J)	.	.
*v	*v	*	*	*	*	*
=335	=335	=335	=335	=335	=335
*8va	*	*	*	*	*
!LO:TX:t=P:problem: 8va przeniesiona do prawej ręki	!	!	!	!	!
8qcccc#X>/	.	.	.	.	.
4dddd>`>/	.	.	(8dd\L	.	.
!	!	!	!LO:TX:i:a:t=Gwiazda	!	!
.	.	.	8d\	.	.
*X8va	*	*	*	*	*
4r	.	.	8f#X\	.	.
.	.	.	8a\	.	.
4r	.	.	8dd\	.	.
.	.	.	8d\J)	.	.
!!LO:PB:g=original	!	!	!	!	!
=336	=336	=336	=336	=336	=336
2.AA\ 2.A	.	.	8r	.	.
.	.	.	8d\L	.	.
.	.	.	8f#X\	.	.
.	.	.	8cc\	.	.
.	.	.	8dd\	.	.
.	.	.	8d\J	.	.
=337	=337	=337	=337	=337	=337
8qccc#X>/	.	.	.	.	.
4ddd>`>/	.	.	8dd\L	.	.
.	.	.	8d\	.	.
4r	.	.	8f#X\	.	.
.	.	.	8cc\	.	.
4r	.	.	8dd\	.	.
.	.	.	8d\J	.	.
=338	=338	=338	=338	=338	=338
2.GG/ 2.G	.	.	8dd\L	.	.
.	.	.	8d\	.	.
.	.	.	8g\	.	.
.	.	.	8b-\	.	.
.	.	.	8dd\	.	.
.	.	.	8d\J	.	.
=339	=339	=339	=339	=339	=339
*8va	*	*	*	*	*
!LO:TX:t=P:problem: 8va przeniesiona do prawej ręki	!	!	!	!	!
8qcccc#X>/	.	.	.	.	.
4dddd>`>/	.	.	8dd\L	.	.
.	.	.	8d\	.	.
*X8va	*	*	*	*	*
4r	.	.	8g\	.	.
.	.	.	8b-\	.	.
4r	.	.	8dd\	.	.
.	.	.	8d\J	.	.
=340	=340	=340	=340	=340	=340
2.EE-/ 2.E-	.	.	8cc\L	.	.
.	.	.	8c\	.	.
.	.	.	8e-\	.	.
.	.	.	8g\	.	.
.	.	.	8cc\	.	.
.	.	.	8c\J	.	.
=341	=341	=341	=341	=341	=341
8qbbn>/	.	.	.	.	.
4ccc#X>~>/	.	.	8cc\L	.	.
.	.	.	8c\	.	.
4r	.	.	8e-\	.	.
.	.	.	8g\	.	.
4r	.	.	8cc\	.	.
.	.	.	8c\J	.	.
!!LO:LB:g=original	!	!	!	!	!
=342	=342	=342	=342	=342	=342
2.FF/ 2.F	.	.	8b-\L	.	.
.	.	.	8B-\	.	.
.	.	.	8d\	.	.
.	.	.	8f\	.	.
.	.	.	8b-\	.	.
.	.	.	8B-\J	.	.
=343	=343	=343	=343	=343	=343
8qaa>/	.	.	.	.	.
4bbn>~>/	.	.	8b-\L	.	.
.	.	.	8B-\	.	.
4r	.	.	8d\	.	.
.	.	.	8f\	.	.
4r	.	.	8b-\	.	.
.	.	.	8B-\J	.	.
=344	=344	=344	=344	=344	=344
2.FFF/ 2.FF	.	.	8a\L	.	.
.	.	.	8c\	.	.
.	.	.	8e-\	.	.
.	.	.	8f\	.	.
.	.	.	8a\	.	.
.	.	.	8c\J	.	.
=345	=345	=345	=345	=345	=345
8qgg#X>/	.	.	.	.	.
4aa>~>/	.	.	8a\L	.	.
.	.	.	8c\	.	.
4r	.	.	8e-\	.	.
.	.	.	8f\	.	.
4r	.	.	8a\	.	.
.	.	.	8c\J	.	.
=346	=346	=346	=346	=346	=346
4BBB-/ 4BB-	.	.	8b-/L	.	.
!	!	!	!LO:TX:i:b:t=Wschód Księżyca	!	!
.	.	.	8B-/	.	.
4r	.	.	8d/	.	.
.	.	.	8f/	.	.
4r	.	.	8b-/	.	.
.	.	.	8B-/J	.	.
=347	=347	=347	=347	=347	=347
2.r	.	.	8b-/L	.	.
.	.	.	8d/	.	.
.	.	.	8f/	.	.
.	.	.	8b-/	.	.
.	.	.	8dd/	.	.
.	.	.	8f/J	.	.
=348	=348	=348	=348	=348	=348
2.r	.	.	8dd\L	.	.
.	.	.	8f\	.	.
.	.	.	8b-\	.	.
.	.	.	8dd\	.	.
.	.	.	8ff\	.	.
.	.	.	8b-\J	.	.
!!LO:LB:g=original	!	!	!	!	!
=349	=349	=349	=349	=349	=349
2.r	.	.	8ff\L	.	.
.	.	.	8b-\	.	.
.	.	.	8dd\	.	.
.	.	.	8ff\	.	.
.	.	.	8bb-\	.	.
.	.	.	8dd\J	.	.
=350	=350	=350	=350	=350	=350
2.r	.	.	8bb-\L	.	.
.	.	.	8ff\	.	.
.	.	.	8dd\	.	.
.	.	.	8b-\	.	.
.	.	.	8ff\	.	.
.	.	.	8dd\J	.	.
=351	=351	=351	=351	=351	=351
2.r	.	.	8b-/L	.	.
.	.	.	8f/	.	.
.	.	.	8dd/	.	.
.	.	.	8b-/	.	.
.	.	.	8f/	.	.
.	.	.	8d/J	.	.
=352	=352	=352	=352	=352	=352
!	!	!	!LO:TX:i:b:t=pomposo	!	!
2.r	.	.	8b-/L	.	.
.	.	.	8f/	.	.
.	.	.	8d/	.	.
.	.	.	8B-/	.	.
.	.	.	8f/	.	.
.	.	.	8d/J	.	.
=353	=353	=353	=353	=353	=353
2.rBB	.	.	8B-</L	.	.
.	.	.	8F</	.	.
.	.	.	8d</	.	.
.	.	.	8B-</	.	.
.	.	.	8F</	.	.
.	.	.	8D</J	.	.
=354	=354	=354	=354	=354	=354
!LO:TX:i:a:t=Księżyc	!	!	!	!	!
2BBB-;/ 2BB-	.	.	2.r;	.	.
4r	.	.	.	.	.
=355||	=355||	=355||	=355||	=355||	=355||
!	!	!	!LO:TX:i:b:t=Pauza \ni Cisza.	!	!
2.r	.	.	2.r	.	.
!!LO:LB:g=original	!	!	!	!	!
=356||	=356||	=356||	=356||	=356||	=356||
*k[b-e-a-]	*	*	*k[b-e-a-]	*	*
*M4/4	*	*	*M4/4	*	*
*met(c)	*	*	*met(c)	*	*
!	!	!	!LO:TX:B:a:t=Maestoso.	!	!
1r	.	.	1r	.	.
=357	=357	=357	=357	=357	=357
!	!	!	!LO:TX:i:a:t=Intrada.	!	!
1r	.	.	2r	.	.
.	.	.	8r	.	ff
!	!	!	!LO:TX:i:b:t=Tromby.	!	!
.	.	.	16b-\LL 16bb-	.	.
.	.	.	16b-\JJ 16bb-	.	.
.	.	.	8b-\L 8bb-	.	.
.	.	.	8b-\J 8bb-	.	.
=358	=358	=358	=358	=358	=358
!	!	!	!LO:TX:i:b:t="Imieniny Pani Marszałkowej.\ndomicelli d.7. Maja.\nGoście we Dworze i Bal z Tańcami.	!	!
!	!	!	!LO:TX:i:a:t=A to co takiego!"	!	!
1r	.	.	2b-\ 2bb-	.	.
.	.	.	8r	.	.
.	.	.	16b-\LL 16bb-	.	.
.	.	.	16b-\JJ 16bb-	.	.
.	.	.	8b-\L 8bb-	.	.
.	.	.	8b-\J 8bb-	.	.
=359	=359	=359	=359	=359	=359
1r	.	.	2b-\ 2bb-	.	.
.	.	.	8r	.	.
.	.	.	16b-\LL 16bb-	.	.
.	.	.	16b-\JJ 16bb-	.	.
.	.	.	8b-\L 8bb-	.	.
.	.	.	8b-\J 8bb-	.	.
=360	=360	=360	=360	=360	=360
!	!	!	!LO:TX:i:a:t=P:problem:mixed beam	!	!
!	!	!	!LO:TX:i:b:t=Kotły.	!	!
!	!	!	!LO:TX:i:a:t=Zdrowie Solinizantki!!_	!	!
*tremolo	*	*	*	*	*
!LO:TX:i:a:t=Kotły.	!	!	!LO:TX:i:a:t=Toasty.	!	!
32BBB-/LLL	.	.	8.b-\L 8.bb-	.	.
32BB-/	.	.	.	.	.
32BBB-/	.	.	.	.	.
32BB-/	.	.	.	.	.
32BBB-/	.	.	.	.	.
32BB-/	.	.	.	.	.
32BBB-/	.	.	16B-/Jk	.	.
32BB-/	.	.	.	.	.
32BBB-/	.	.	8.B-/L	.	.
32BB-/	.	.	.	.	.
32BBB-/	.	.	.	.	.
32BB-/	.	.	.	.	.
32BBB-/	.	.	.	.	.
32BB-/	.	.	.	.	.
32BBB-/	.	.	16B-/Jk 16d	.	.
32BB-/JJJ	.	.	.	.	.
!LO:TX:i:a:t=Muzyka Schabickiego.	!	!	!	!	!
32BBB-/LLL	.	.	8.B-/L 8.d	.	.
32BB-/	.	.	.	.	.
32BBB-/	.	.	.	.	.
32BB-/	.	.	.	.	.
32BBB-/	.	.	.	.	.
32BB-/	.	.	.	.	.
32BBB-/	.	.	16d/Jk 16f	.	.
32BB-/	.	.	.	.	.
32BBB-/	.	.	8.d/L 8.f	.	.
32BB-/	.	.	.	.	.
32BBB-/	.	.	.	.	.
32BB-/	.	.	.	.	.
32BBB-/	.	.	.	.	.
32BB-/	.	.	.	.	.
32BBB-/	.	.	16f/Jk 16b-	.	.
32BB-/JJJ	.	.	.	.	.
=361	=361	=361	=361	=361	=361
!	!	!	!LO:TX:i:a:t=Kochanego Marszałka!!\nWiwat!!!	!	!
32BBB-/LLL	.	.	8.f/L 8.b-	.	.
32BB-/	.	.	.	.	.
32BBB-/	.	.	.	.	.
32BB-/	.	.	.	.	.
32BBB-/	.	.	.	.	.
32BB-/	.	.	.	.	.
32BBB-/	.	.	16B-/Jk 16d	.	.
32BB-/	.	.	.	.	.
32BBB-/	.	.	8.B-/L 8.d	.	.
32BB-/	.	.	.	.	.
32BBB-/	.	.	.	.	.
32BB-/	.	.	.	.	.
32BBB-/	.	.	.	.	.
32BB-/	.	.	.	.	.
32BBB-/	.	.	16d/Jk 16f	.	.
32BB-/JJJ	.	.	.	.	.
32BBB-/LLL	.	.	8.d/L 8.f	.	.
32BB-/	.	.	.	.	.
32BBB-/	.	.	.	.	.
32BB-/	.	.	.	.	.
32BBB-/	.	.	.	.	.
32BB-/	.	.	.	.	.
32BBB-/	.	.	16f/Jk 16b-	.	.
32BB-/	.	.	.	.	.
32BBB-/	.	.	8.f/L 8.b-	.	.
32BB-/	.	.	.	.	.
32BBB-/	.	.	.	.	.
32BB-/	.	.	.	.	.
32BBB-/	.	.	.	.	.
32BB-/	.	.	.	.	.
32BBB-/	.	.	16b-/Jk 16dd	.	.
32BB-/JJJ	.	.	.	.	.
!!LO:LB:g=original	!	!	!	!	!
=362	=362	=362	=362	=362	=362
!	!	!	!LO:TX:i:a:t=Łaskawego Sędziego !!\nWiwat!!!	!	!
32BBB-/LLL	.	.	8.b-/L 8.dd	.	.
32BB-/	.	.	.	.	.
32BBB-/	.	.	.	.	.
32BB-/	.	.	.	.	.
32BBB-/	.	.	.	.	.
32BB-/	.	.	.	.	.
32BBB-/	.	.	16d/Jk 16f	.	.
32BB-/	.	.	.	.	.
32BBB-/	.	.	8.d/L 8.f	.	.
32BB-/	.	.	.	.	.
32BBB-/	.	.	.	.	.
32BB-/	.	.	.	.	.
32BBB-/	.	.	.	.	.
32BB-/	.	.	.	.	.
32BBB-/	.	.	16f/Jk 16b-	.	.
32BB-/JJJ	.	.	.	.	.
32BBB-/LLL	.	.	8.f\L 8.b-	.	.
32BB-/	.	.	.	.	.
32BBB-/	.	.	.	.	.
32BB-/	.	.	.	.	.
32BBB-/	.	.	.	.	.
32BB-/	.	.	.	.	.
32BBB-/	.	.	16b-\Jk 16dd	.	.
32BB-/	.	.	.	.	.
32BBB-/	.	.	8.b-\L 8.dd	.	.
32BB-/	.	.	.	.	.
32BBB-/	.	.	.	.	.
32BB-/	.	.	.	.	.
32BBB-/	.	.	.	.	.
32BB-/	.	.	.	.	.
32BBB-/	.	.	16dd\Jk 16ff	.	.
32BB-/JJJ	.	.	.	.	.
=363	=363	=363	=363	=363	=363
!	!	!	!LO:TX:i:b:t=Szanownego Podsędka,	!	!
!	!	!	!LO:TX:i:a:t=Wiwat!!!	!	!
32BBB-/LLL	.	.	8.dd\L 8.ff	.	.
32BB-/	.	.	.	.	.
32BBB-/	.	.	.	.	.
32BB-/	.	.	.	.	.
32BBB-/	.	.	.	.	.
32BB-/	.	.	.	.	.
32BBB-/	.	.	16f\Jk 16b-	.	.
32BB-/	.	.	.	.	.
32BBB-/	.	.	8.f\L 8.b-	.	.
32BB-/	.	.	.	.	.
32BBB-/	.	.	.	.	.
32BB-/	.	.	.	.	.
32BBB-/	.	.	.	.	.
32BB-/	.	.	.	.	.
32BBB-/	.	.	16b-\Jk 16dd	.	.
32BB-/JJJ	.	.	.	.	.
32BBB-/LLL	.	.	8.b-\L 8.dd	.	.
32BB-/	.	.	.	.	.
32BBB-/	.	.	.	.	.
32BB-/	.	.	.	.	.
32BBB-/	.	.	.	.	.
32BB-/	.	.	.	.	.
32BBB-/	.	.	16dd\Jk 16ff	.	.
32BB-/	.	.	.	.	.
32BBB-/	.	.	8.dd\L 8.ff	.	.
32BB-/	.	.	.	.	.
32BBB-/	.	.	.	.	.
32BB-/	.	.	.	.	.
32BBB-/	.	.	.	.	.
32BB-/	.	.	.	.	.
32BBB-/	.	.	16ff\Jk 16aa-	.	.
32BB-/JJJ	.	.	.	.	.
=364	=364	=364	=364	=364	=364
!	!	!	!LO:TX:i:b:t=Chorążego,	!	!
32BBB-/LLL	.	.	4ff\ 4aa-	.	.
32BB-/	.	.	.	.	.
32BBB-/	.	.	.	.	.
32BB-/	.	.	.	.	.
32BBB-/	.	.	.	.	.
32BB-/	.	.	.	.	.
32BBB-/	.	.	.	.	.
32BB-/	.	.	.	.	.
32BBB-/	.	.	8r	.	.
32BB-/	.	.	.	.	.
32BBB-/	.	.	.	.	.
32BB-/	.	.	.	.	.
32BBB-/	.	.	16b-\LL 16dd 16ff 16aa-	.	.
32BB-/	.	.	.	.	.
32BBB-/	.	.	16b-\JJ 16dd 16ff 16aa-	.	.
32BB-/JJJ	.	.	.	.	.
32BBB-/LLL	.	.	8b-\L 8dd 8ff 8aa-	.	.
32BB-/	.	.	.	.	.
32BBB-/	.	.	.	.	.
32BB-/	.	.	.	.	.
!	!	!	!LO:TX:i:b:t=Deputatów i.t.d.	!	!
32BBB-/	.	.	8b-\ 8dd 8ff 8aa-	.	.
32BB-/	.	.	.	.	.
32BBB-/	.	.	.	.	.
32BB-/	.	.	.	.	.
32BBB-/	.	.	8b-\ 8dd 8ff 8aa-	.	.
32BB-/	.	.	.	.	.
32BBB-/	.	.	.	.	.
32BB-/	.	.	.	.	.
32BBB-/	.	.	8b-\J 8dd 8ff 8aa-	.	.
32BB-/	.	.	.	.	.
32BBB-/	.	.	.	.	.
32BB-/JJJ	.	.	.	.	.
=365	=365	=365	=365	=365	=365
32BBB-/LLL	.	.	1b-; 1dd 1ff 1aa-	.	.
32BB-/	.	.	.	.	.
32BBB-/	.	.	.	.	.
32BB-/	.	.	.	.	.
32BBB-/	.	.	.	.	.
32BB-/	.	.	.	.	.
32BBB-/	.	.	.	.	.
32BB-/	.	.	.	.	.
32BBB-/	.	.	.	.	.
32BB-/	.	.	.	.	.
32BBB-/	.	.	.	.	.
32BB-/	.	.	.	.	.
32BBB-/	.	.	.	.	.
32BB-/	.	.	.	.	.
32BBB-/	.	.	.	.	.
32BB-/JJJ	.	.	.	.	.
!LO:TX:i:a:t=Wiwat!!!	!	!	!	!	!
32BBB-/LLL	.	.	.	.	.
32BB-/	.	.	.	.	.
32BBB-/	.	.	.	.	.
32BB-/	.	.	.	.	.
32BBB-/	.	.	.	.	.
32BB-/	.	.	.	.	.
32BBB-/	.	.	.	.	.
32BB-/	.	.	.	.	.
32BBB-/	.	.	.	.	.
32BB-/	.	.	.	.	.
32BBB-/	.	.	.	.	.
32BB-/	.	.	.	.	.
32BBB-/	.	.	.	.	.
32BB-/	.	.	.	.	.
32BBB-/	.	.	.	.	.
32BB-/JJJ	.	.	.	.	.
=366	=366	=366	=366	=366	=366
4BBB-;/	.	.	1r;	.	.
4r	.	.	.	.	.
2r	.	.	.	.	.
!!LO:PB:g=original	!	!	!	!	!
=367||	=367||	=367||	=367||	=367||	=367||
*M3/4	*	*	*M3/4	*	*
!	!	!	!LO:TX:B:a:t=Andante con adorazione.	!	!
!	!	!	!LO:TX:i:a:t=TANY.\nINWITACYA do POLKI.	!	!LO:HP:a
2.E-\ 2.G	.	.	(4B-/	.	p <
.	.	.	4e-/	.	.
.	.	.	4g/)	.	[[
=368	=368	=368	=368	=368	=368
*	*	*	*^	*	*
!	!	!	!	!	!	!LO:DY:a
2.BB-:\ 2.F: 2.A-:	.	.	4.b-:/	2.B-:\ 2.d:	.	rfz
.	.	.	(8a-/L	.	.	.
.	.	.	8.f/	.	.	.
.	.	.	16g/Jk)	.	.	.
=369	=369	=369	=369	=369	=369	=369
*^	*	*	*	*	*	*
2G/	2C\	.	.	2e-/	2c\	.	.
4A-/	4AA-\	.	.	4f'/	4c\	.	.
=370	=370	=370	=370	=370	=370	=370	=370
4F'/	4BB-\	.	.	4d'/	4A-\	.	.
4E-'/	4EE-\	.	.	4e-'/	4G\	.	.
4r	4ryy	.	.	4r	4r	.	.
*	*	*	*	*v	*v	*	*
=371	=371	=371	=371	=371	=371	=371
!	!	!	!	!LO:TX:i:b:t=aggiustarsi	!	!LO:HP:a
2B-/	(4D\	.	.	(4f/ 4a-	.	>
.	4E-\)	.	.	4e-/) 4g	.	.
4r	4r	.	.	4r	.	]
*v	*v	*	*	*	*	*
=372	=372	=372	=372	=372	=372
*	*	*	*^	*	*
!	!	!	!	!	!	!LO:HP:a
(4A-\ 4c	.	.	(4cc/	2e-\	.	>
4G\) 4B-	.	.	4b-/)	.	.	]]
4r	.	.	4r	4ryy	.	.
*	*	*	*v	*v	*	*
=373	=373	=373	=373	=373	=373
(4F'\ 4c	.	.	(>4f'/ 4a-	.	<
4F'\ 4c	.	.	4f'/ 4a-	.	.
4E-'\) 4Bn	.	.	4f'/) 4a-	.	.
!!LO:LB:g=original	!	!	!	!	!
=374	=374	=374	=374	=374	=374
*	*	*	*^	*	*
!	!	!	!	!	!	!LO:DY:a
2D:\ 2B-:	.	.	4.ff:/	2f:\ 2a-:	.	sfz
.	.	.	8dd/L	.	.	.
4r	.	.	8.b-/	4r	.	.
.	.	.	16a-/Jk	.	.	.
*	*	*	*v	*v	*	*
=375	=375	=375	=375	=375	=375
*^	*	*	*	*	*
(4B-/	2E-\ 2e-	.	.	4g/	.	.
!	!	!	!	!LO:TUP:a	!	!
4G/)	.	.	.	12r	.	.
!	!	!	!	!LO:TX:i:b:t=lusingando	!	!
.	.	.	.	12a-'\L	.	.
.	.	.	.	12b-'\J	.	.
!	!	!	!	!LO:TUP:a	!	!
4r	4r	.	.	12cc'\L	.	.
.	.	.	.	12dd'\	.	.
.	.	.	.	12ee-'\J	.	.
*v	*v	*	*	*	*	*
=376	=376	=376	=376	=376	=376
4AA-'/	.	.	4ee-^^\	.	.
4A-'\ 4c	.	.	12r	.	.
.	.	.	12f'/L	.	.
.	.	.	12g'/J	.	.
4r	.	.	12a-'/L	.	.
.	.	.	12b-'/	.	.
.	.	.	12cc'/J	.	.
=377	=377	=377	=377	=377	=377
4BB-'/	.	.	4.cc^^\	.	.
4E-'\ 4G 4B-	.	.	.	.	.
.	.	.	8b-/L	.	.
4r	.	.	8g/	.	.
.	.	.	8e-/J	.	.
=378	=378	=378	=378	=378	=378
*ped	*	*	*	*	*
4BBB-/ 4BB-	.	.	2b-^^\	.	.
4F:\ 4A-: 4B-: 4d:	.	.	.	.	.
.	.	.	(32qqa-/LLL	.	.
.	.	.	32qqf/	.	.
.	.	.	32qqg/	.	.
.	.	.	32qqb-/	.	.
.	.	.	32qqa-/	.	.
.	.	.	32qqf/	.	.
.	.	.	32qqd/	.	.
.	.	.	32qqB-/JJJ)	.	.
*Xped	*	*	*	*	*
4r;	.	.	8.cc;\L	.	.
.	.	.	16b-\Jk	.	.
!!LO:LB:g=original	!	!	!	!	!
=379||	=379||	=379||	=379||	=379||	=379||
*M2/4	*	*	*M2/4	*	*
!	!	!	!LO:TX:i:b:t=e leggiero	!	!
!	!	!	!LO:TX:i:a:t=POLKA.	!	!
8r	.	.	16g/LL	.	p
.	.	.	16a-/JJ	.	.
=380	=380	=380	=380	=380	=380
*	*	*	*^	*	*
8E-'\L	.	.	8b-'/L	8g\L	.	.
.	.	.	8qdd/	.	.	.
8G'\J 8B-	.	.	8cc'/J	8g\J	.	.
8BB-'\L	.	.	8b-'/L	8g\L	.	.
8G'\J 8B-	.	.	8gg'/J	8g\J 8b-	.	.
=381	=381	=381	=381	=381	=381	=381
8E-'\L	.	.	8ff'/L	8g\L 8b-	.	.
8G'\J 8B-	.	.	8ee-'/	8g\ 8b-	.	.
8BB-'\L	.	.	8dd'/J	8g\J 8b-	.	.
8G'\J 8B-	.	.	16r	16ryy	.	.
.	.	.	16cc/	16g\ 16b-	.	.
=382	=382	=382	=382	=382	=382	=382
8D'\L	.	.	(8cc^^:/L	4f:\ 4a-:	.	.
8A-'\J 8B-	.	.	8b-/J)	.	.	.
8BB-'\L	.	.	(8ee-^^:/L	4f:\ 4a-:	.	.
8A-'\J 8B-	.	.	8dd/J)	.	.	.
=383	=383	=383	=383	=383	=383	=383
*ped	*	*	*	*	*	*
!	!	!LO:DY:a	!	!	!	!
!	!	!	!	!	!	!LO:DY:a
8BBB-/ 8BB-	.	sfz	(8.gg:/L	4a-:\ 4dd:	.	sfz
*Xtremolo	*	*	*	*	*	*
8A-\L 8B- 8d 8f	.	.	.	.	.	.
.	.	.	16ff/Jk	.	.	.
8A-\J 8B- 8d 8f	.	.	16ee-/LL	4r	.	.
.	.	.	16dd/	.	.	.
8r	.	.	16cc/	.	.	.
.	.	.	16b-/JJ)	.	.	.
*Xped	*	*	*	*	*	*
=384	=384	=384	=384	=384	=384	=384
8E-'\L	.	.	8b-'/L	8g\L	.	.
8G'\J 8B-	.	.	16cc'/L	16g\L	.	.
.	.	.	16cc'/JJ	16g\JJ	.	.
8BB-'\L	.	.	8b-'/L	8g\L	.	.
8G'\J 8B-	.	.	8gg'/J	8g\J	.	.
!!LO:LB:g=original	!	!	!	!	!	!
=385	=385	=385	=385	=385	=385	=385
8E-'\L	.	.	8ff'/L	8g\L 8b-	.	.
8G'\J 8B-	.	.	8ee-'/	8g\ 8b-	.	.
8BB-'\L	.	.	8dd'/J	8g\J 8b-	.	.
8G'\J 8B-	.	.	16r	16ryy	.	.
.	.	.	16cc/	16g\ 16b-	.	.
=386	=386	=386	=386	=386	=386	=386
8D'\L	.	.	(8cc^^:/L	4f:\ 4a-:	.	.
8A-'\J 8B-	.	.	8b-/J)	.	.	.
8BB-'\L	.	.	(16ee-^^:/LL	4f:\ 4a-:	.	.
.	.	.	16dd/	.	.	.
8A-'\J 8B-	.	.	16cc/)	.	.	.
.	.	.	16dd/JJ	.	.	.
=387	=387	=387	=387	=387	=387	=387
8E-'\ 8B-	.	.	8ee-'/L	8g\L	.	.
(8E-/L	.	.	8gg'/	8b-\	.	.
8EE-/J)	.	.	8ee-'/J	8g\J	.	.
=:!:	=:!:	=:!:	=:!:	=:!:	=:!:	=:!:
!!LO:TX:t=P:problem: błąd wyświetlania Verovio znaku repetycji	!	!	!	!	!	!
8r	.	.	16dd\LL	8ryy	.	.
.	.	.	16ee-\JJ	.	.	.
=388	=388	=388	=388	=388	=388	=388
8BB-'\L	.	.	8ff`/L	4f\	.	f
8F'\ 8B- 8d-y	.	.	(16een/L	.	.	.
.	.	.	16gg/JJ)	.	.	.
8F'\J 8B- 8d-	.	.	8ff`/L	4f\	.	.
8r	.	.	(16ee/L	.	.	.
.	.	.	16gg/JJ)	.	.	.
=389	=389	=389	=389	=389	=389	=389
8BB-'\L	.	.	4ff^^/	4f\	.	.
8F'\ 8B- 8d-y	.	.	.	.	.	.
8F'\J 8B- 8d-	.	.	8dd'/L	8f\L	.	.
8r	.	.	8b-'/J	8f\J	.	.
=390	=390	=390	=390	=390	=390	=390
8FF'/L	.	.	(16dd/LL	4f\	.	.
.	.	.	16cc/	.	.	.
8F'\ 8An 8e-	.	.	16bn/	.	.	.
.	.	.	16cc/JJ)	.	.	.
8F'\J 8c 8e-	.	.	(16b-X/LL	4r	.	.
.	.	.	16an/	.	.	.
8r	.	.	16g/	.	.	.
.	.	.	16f/JJ)	.	.	.
*	*	*	*v	*v	*	*
!!LO:LB:g=original	!	!	!	!	!
=391	=391	=391	=391	=391	=391
8BB-'\L	.	.	(16b-\LL	.	.
.	.	.	16cc\	.	.
8F'\ 8B- 8d	.	.	16b-\	.	.
.	.	.	16an\JJ)	.	.
8F'\J 8B- 8d	.	.	(16b-\LL	.	.
.	.	.	16cc\	.	.
8r	.	.	16dd\	.	.
.	.	.	16ee-\JJ)	.	.
=392	=392	=392	=392	=392	=392
8BB-'\L	.	.	(16ff\LL	.	.
.	.	.	16f\	.	.
8F'\ 8B- 8d	.	.	16een\	.	.
.	.	.	16f\JJ	.	.
8F'\J 8B- 8d	.	.	16ff\LL	.	.
.	.	.	16f\	.	.
8r	.	.	16gg\	.	.
.	.	.	16f\JJ)	.	.
=393	=393	=393	=393	=393	=393
*	*	*	*^	*	*
8BB-'\L	.	.	4ff^^/	4f\	.	.
8F'\ 8B- 8d	.	.	.	.	.	.
8F'\J 8B- 8d	.	.	8dd'/L	8f\L	.	.
8r	.	.	8b-'/J	8f\J	.	.
=394	=394	=394	=394	=394	=394	=394
8FF'/L	.	.	(16dd/LL	4f\	.	.
.	.	.	16cc/	.	.	.
8F'\ 8An 8e-	.	.	16bn/	.	.	.
.	.	.	16cc/JJ)	.	.	.
8F'\J 8A 8c 8e-	.	.	(16b/LL	4r	.	.
.	.	.	16cc/	.	.	.
8r	.	.	16ee-/	.	.	.
.	.	.	16an/JJ)	.	.	.
=395	=395	=395	=395	=395	=395	=395
8B-'\L 8d	.	.	4b-/	4b-\	.	.
8d'\ 8f	.	.	.	.	.	.
8B-'\J 8d	.	.	8r	8ryy	.	.
!!LO:LB:g=original	!	!	!	!	!	!
=:!	=:!	=:!	=:!	=:!	=:!	=:!
8r	.	.	16g/LL	8r	.	.
.	.	.	16a-X/JJ	.	.	.
=396	=396	=396	=396	=396	=396	=396
8E-'\L	.	.	8b-'/L	8g\L	.	.
.	.	.	8qdd/	.	.	.
8G'\J 8B-	.	.	8cc'/J	8g\J	.	.
8BB-'\L	.	.	8b-'/L	8g\L	.	.
8G'\J 8B-	.	.	8gg'/J	8g\J 8b-	.	.
=397	=397	=397	=397	=397	=397	=397
8E-'\L	.	.	8ff'/L	8g\L 8b-	.	.
8G'\J 8B-	.	.	8ee-'/	8g\ 8b-	.	.
8BB-'\L	.	.	8dd'/J	8g\J 8b-	.	.
8G'\J 8B-	.	.	16r	16ryy	.	.
.	.	.	16cc/	16g\ 16b-	.	.
=398	=398	=398	=398	=398	=398	=398
!	!	!	!	!	!	!LO:HP:a
8D'\L	.	.	(8cc^^:/L	4f:\ 4a-:	.	>
8A-'\J 8B-	.	.	8b-/J)	.	.	]
!	!	!	!	!	!	!LO:HP:a
8BB-'\L	.	.	(8ee-^^:/L	4f:\ 4a-:	.	>
8A-'\J 8B-	.	.	8dd/J)	.	.	]
=399	=399	=399	=399	=399	=399	=399
*ped	*	*	*	*	*	*
!	!	!	!	!	!	!LO:DY:a
8BBB-/ 8BB-	.	.	8.gg:/L	4a-:\ 4dd:	.	sfz
8A-'\L 8B- 8d 8f	.	.	.	.	.	.
.	.	.	16ff/Jk	.	.	.
8A-'\J 8B- 8d 8f	.	.	16ee-M/LL	4r	.	.
.	.	.	16dd/	.	.	.
8r	.	.	16cc/	.	.	.
.	.	.	16b-/JJ	.	.	.
*Xped	*	*	*	*	*	*
=400	=400	=400	=400	=400	=400	=400
8E-'\L	.	.	8b-'/L	8g\L	.	.
8G'\J 8B-	.	.	16cc'/L	16g\L	.	.
.	.	.	16cc'/JJ	16g\JJ	.	.
8BB-'\L	.	.	8b-'/L	8g\L	.	.
8G'\J 8B-	.	.	8gg'/J	8g\J	.	.
!!LO:LB:g=original	!	!	!	!	!	!
=401	=401	=401	=401	=401	=401	=401
8E-'\L	.	.	8ff'/L	8g\L 8b-	.	.
8G'\J 8B-	.	.	8ee-'/	8g\ 8b-	.	.
8BB-'\L	.	.	8dd'/J	8g\J 8b-	.	.
8G'\J 8B-	.	.	16r	16ryy	.	.
.	.	.	16cc/	16g\ 16b-	.	.
=402	=402	=402	=402	=402	=402	=402
!	!	!	!	!	!	!LO:DY:a
8D'\L	.	.	(8cc:/L	4f:\ 4a-:	.	rfz
8A-'\J 8B-	.	.	8b-/J)	.	.	.
!	!	!	!	!	!	!LO:DY:a
8BB-'\L	.	.	(16ee-:/LL	4f:\ 4a-:	.	rfz
.	.	.	16dd/	.	.	.
8A-'\J 8B-	.	.	16cc/)	.	.	.
.	.	.	16dd/JJ	.	.	.
=403	=403	=403	=403	=403	=403	=403
8E-'\ 8B-	.	.	8ee-'/L	8g\L	.	.
(8E-/L	.	.	8gg'/	8b-\	.	.
8EE-/J)	.	.	8ee-'/J	8g\J	.	.
=:!:	=:!:	=:!:	=:!:	=:!:	=:!:	=:!:
*	*	*	*v	*v	*	*
*k[b-e-a-d-]	*	*	*k[b-e-a-d-]	*	*
!!LO:TX:t=P:problem: błąd wyświetlania Verovio znaku repetycji	!	!	!	!	!
8r	.	.	(16cc\LL	.	.
.	.	.	16dd-\JJ)	.	.
=404	=404	=404	=404	=404	=404
*ped	*	*	*	*	*
!	!	!	!LO:TX:i:b:t=dolce	!	!
8AA-`/	.	.	(8.cc\L 8.ee-	.	.
(8E-\L	.	.	.	.	.
.	.	.	16bn\K) 16ddn	.	.
8A-\ 8c	.	.	8cc`\ 8ee-	.	.
8E-\J)	.	.	8b`\J 8dd	.	.
=405	=405	=405	=405	=405	=405
8AA-`/	.	.	8dd-`\ 8ff	.	.
(8E-\L	.	.	4cc^^\ 4ee-	.	.
8A-\ 8c	.	.	.	.	.
8E-\J)	.	.	(16b-\LL 16dd-	.	.
.	.	.	16a-\JJ) 16cc	.	.
*Xped	*	*	*	*	*
!!LO:LB:g=original	!	!	!	!	!
=406	=406	=406	=406	=406	=406
*ped	*	*	*	*	*
8EE-`/	.	.	8cc`\ 8ee-	.	.
(8E-\L	.	.	4b-^^\ 4dd-	.	.
8B-\ 8d-	.	.	.	.	.
8E-\J)	.	.	(16f#X/LL 16an	.	.
.	.	.	16g/JJ) 16b-	.	.
*Xped	*	*	*	*	*
=407	=407	=407	=407	=407	=407
8AA-`/	.	.	(16b-\LL 16dd-	.	.
.	.	.	16a-X\ 16cc	.	.
(8E-\L	.	.	16dd-\ 16ff	.	.
.	.	.	16cc\JJ) 16ee-	.	.
8A-\ 8c	.	.	8cc`\ 8ee-	.	.
8E-\J)	.	.	(16aa-\LL 16ccc	.	.
.	.	.	16bb-\JJ) 16ddd-	.	.
=408	=408	=408	=408	=408	=408
*ped	*	*	*	*	*
8AA-`/	.	.	(8.ccc\L 8.eee-	.	.
8E-\L 8A- 8c	.	.	.	.	.
.	.	.	16bbn\K) 16dddn	.	<
8E-\ 8A- 8c	.	.	8ccc`\ 8eee-	.	.
8E-\J 8A- 8c	.	.	8bb`\J 8ddd	.	.
=409	=409	=409	=409	=409	=409
8AA-`/	.	.	8ddd-`\ 8fff	.	.
8E-\L 8A- 8c	.	.	4ccc^^\ 4eee-	.	.
8E-\ 8A- 8c	.	.	.	.	.
8E-\J 8A- 8c	.	.	(16bb-\LL 16ddd-	.	.
.	.	.	16aa-\JJ) 16ccc	.	.
*Xped	*	*	*	*	*
=410	=410	=410	=410	=410	=410
8E-`\L	.	.	8.ee-\L 8.ccc	.	.
8B-\ 8d- 8e- 8g	.	.	.	.	.
.	.	.	16dd-\K 16bb-	.	.
8B-\ 8d- 8e- 8g	.	.	8ee-\ 8ccc	.	.
8B-\J 8d- 8e- 8g	.	.	8dd-\J 8bb-	.	.
!!LO:LB:g=original	!	!	!	!	!
=411	=411	=411	=411	=411	=411
8A-\L 8e- 8a-	.	.	8cc'\L 8aa-	.	.
8A-\ 8e- 8a-	.	.	8ee-'\ 8ccc	.	.
8A-\J 8e- 8a-	.	.	8cc'\J 8aa-	.	.
=:!:	=:!:	=:!:	=:!:	=:!:	=:!:
!!LO:TX:t=P:problem: błąd wyświetlania Verovio znaku repetycji	!	!	!	!	!
8r	.	.	(16ff\LL	.	.
.	.	.	16gg\JJ)	.	.
=412	=412	=412	=412	=412	=412
8BB-/	.	.	(16bb-\LL	.	.
.	.	.	16aa-\	.	.
8A-\L 8B- 8dn 8f	.	.	16ff\	.	.
.	.	.	16ddn\JJ)	.	.
8A-\J 8B- 8d 8f	.	.	8b-`\L	.	.
8r	.	.	(8ccM\J	.	.
=413	=413	=413	=413	=413	=413
8E-\L	.	.	8b-\L)	.	.
8B-\ 8e- 8g	.	.	(8ee-M\	.	.
8B-\J 8e- 8g	.	.	8b-\)	.	.
8r	.	.	[8gg\J	.	.
=414	=414	=414	=414	=414	=414
8BB-\L	.	.	(16gg\LL]	.	.
.	.	.	16ff\	.	.
8B-\	.	.	16ddn\	.	.
.	.	.	16b-\JJ)	.	.
8dn\ 8f 8a-	.	.	8.cc^^\L 8.ccc	.	.
8B-\J	.	.	.	.	.
.	.	.	16b-\Jk 16bb-	.	.
!!LO:LB:g=original	!	!	!	!	!
=415	=415	=415	=415	=415	=415
8E-\L	.	.	(4b-\ 4bb-	.	.
8B-\	.	.	.	.	.
8e-\ 8g	.	.	8gg`\)	.	.
8B-\J	.	.	(16ff#X\LL	.	.
.	.	.	16gg\JJ)	.	.
=416	=416	=416	=416	=416	=416
8BB-/	.	.	(16bb-\LL	.	.
.	.	.	16aa-\	.	.
8A-\L 8B- 8dn 8f	.	.	16ff\	.	.
.	.	.	16ddn\JJ)	.	.
8A-\J 8B- 8d 8f	.	.	8b-`\L	.	.
8r	.	.	(8ccM\J	.	.
=417	=417	=417	=417	=417	=417
*^	*	*	*	*	*
8E-/	8E-\L	.	.	8b-\L)	.	.
8ryy	8B-\ 8e- 8g	.	.	(8ee-M\	.	.
4G/	8G\	.	.	8b-\)	.	.
.	8B-\J 8e-	.	.	8gg`\J	.	.
=418	=418	=418	=418	=418	=418	=418
4A-/	8A-\L	.	.	8cc`\L	.	.
.	8c\J 8f	.	.	8ff`\J	.	.
4B-/	8B-\L	.	.	(16ee-\LL	.	.
.	.	.	.	16ddn\	.	.
.	8f\J 8a-	.	.	16cc\	.	.
.	.	.	.	16dd\JJ)	.	.
*v	*v	*	*	*	*	*
=419	=419	=419	=419	=419	=419
8e-'\ 8g	.	.	8ee-'\	.	.
8E-'\L 8e-	.	.	8b-'\L 8gg	.	.
8E-'\J 8e-	.	.	8g'\J 8ee-	.	.
!!LO:PB:g=original	!	!	!	!	!
=:!	=:!	=:!	=:!	=:!	=:!
8r	.	.	16cc\LL	.	.
.	.	.	16dd-X\JJ	.	.
=420	=420	=420	=420	=420	=420
*ped	*	*	*	*	*
!	!	!	!LO:TX:i:b:t=dolce	!	!
8AA-`/	.	.	(8.cc\L 8.ee-	.	.
(8E-\L	.	.	.	.	.
.	.	.	16bn\K) 16ddn	.	.
8A-\ 8c	.	.	8cc'\ 8ee-	.	.
8E-\J)	.	.	8b'\J 8dd	.	.
=421	=421	=421	=421	=421	=421
8AA-`/	.	.	8dd-`\ 8ff	.	.
(8E-\L	.	.	4cc^^\ 4ee-	.	.
8A-\ 8c	.	.	.	.	.
8E-\J)	.	.	(16b-\LL 16dd-	.	.
.	.	.	16a-\JJ) 16cc	.	.
*Xped	*	*	*	*	*
=422	=422	=422	=422	=422	=422
*ped	*	*	*	*	*
8EE-`/	.	.	8cc`\ 8ee-	.	.
(8E-\L	.	.	4b-^^\ 4dd-	.	.
8B-\ 8d-	.	.	.	.	.
8E-\J)	.	.	(16f#X/LL 16an	.	.
.	.	.	16g/JJ) 16b-	.	.
*Xped	*	*	*	*	*
=423	=423	=423	=423	=423	=423
8AA-`/	.	.	(16b-\LL 16dd-	.	.
.	.	.	16a-X\ 16cc	.	.
(8E-\L	.	.	16dd-\ 16ff	.	.
.	.	.	16cc\JJ) 16ee-	.	.
8A-\ 8c	.	.	8cc\ 8ee-	.	.
8E-\J)	.	.	(16aa-\LL 16ccc	.	.
.	.	.	16bb-\JJ) 16ddd-	.	.
=424	=424	=424	=424	=424	=424
*^	*	*	*	*	*
*ped	*	*	*	*	*	*
8AA-/	8AA-\L	.	.	(8.ccc\L 8.eee-	.	.
8ryy	8E-\ 8A- 8c	.	.	.	.	.
.	.	.	.	16bbn\K) 16dddn	.	.
8ryy	8E-\ 8A- 8c	.	.	8ccc'\ 8eee-	.	.
8ryy	8E-\J 8A- 8c	.	.	8bb'\J 8ddd	.	.
!!LO:LB:g=original	!	!	!	!	!	!
=425	=425	=425	=425	=425	=425	=425
8AA-/	8AA-\L	.	.	8ddd-`\ 8fff	.	.
8ryy	8E-\ 8A- 8c	.	.	4ccc^^\ 4eee-	.	.
8ryy	8E-\ 8A- 8c	.	.	.	.	.
8ryy	8E-\J 8A- 8c	.	.	(16bb-\LL 16ddd-	.	.
.	.	.	.	16aa-\JJ) 16ccc	.	.
*Xped	*	*	*	*	*	*
=426	=426	=426	=426	=426	=426	=426
*	*	*	*	*^	*	*
8E-/	8E-\L	.	.	8.ryy	8.ee-\L 8.ccc	.	.
8ryy	8B-\ 8d- 8e- 8g	.	.	.	.	.	.
.	.	.	.	16ryy	16dd-\Jk 16bb-	.	.
8ryy	8B-\J 8d- 8e- 8g	.	.	(16aa-/LL	4dd-\	.	.
.	.	.	.	16gg/	.	.	.
8ryy	8r	.	.	16ff/	.	.	.
.	.	.	.	16gg/JJ)	.	.	.
*v	*v	*	*	*	*	*	*
*	*	*	*v	*v	*	*
=427	=427	=427	=427	=427	=427
8A-\ 8e- 8a-	.	.	8cc'\L 8aa-	.	.
8AA-'\L 8A-	.	.	8ee-'\ 8ccc	.	.
8AA-'\J 8A-	.	.	8cc'\J 8aa-	.	.
=||	=||	=||	=||	=||	=||
*k[dnb-e-a-]	*	*	*k[dnb-e-a-]	*	*
8r	.	.	16g/LL	.	.
.	.	.	16a-/JJ	.	.
=428	=428	=428	=428	=428	=428
*	*	*	*^	*	*
8E-'\L	.	.	8b-'/L	8g\L	.	.
.	.	.	8qdd/	.	.	.
8G'\J 8B-	.	.	8cc'/J	8g\J	.	.
8BB-'\L	.	.	8b-'/L	8g\L	.	.
8G'\J 8B-	.	.	8gg'/J	8g\J 8b-	.	.
=429	=429	=429	=429	=429	=429	=429
8E-'\L	.	.	8ff'/L	8g\L 8b-	.	.
8G'\J 8B-	.	.	8ee-'/	8g\ 8b-	.	.
8BB-'\L	.	.	8dd'/J	8g\J 8b-	.	.
8G'\J 8B-	.	.	16r	16ryy	.	.
.	.	.	16cc/	16g\ 16b-	.	.
!!LO:LB:g=original	!	!	!	!	!	!
=430	=430	=430	=430	=430	=430	=430
!	!	!	!	!	!	!LO:HP:a
8D'\L	.	.	(8cc:/L	4f:\ 4a-:	.	>
8A-'\J 8B-	.	.	8b-/J)	.	.	]
!	!	!	!	!	!	!LO:HP:a
8BB-'\L	.	.	(8ee-:/L	4f:\ 4a-:	.	>
8A-'\J 8B-	.	.	8dd/J)	.	.	]
=431	=431	=431	=431	=431	=431	=431
*ped	*	*	*	*	*	*
!	!	!	!	!	!	!LO:DY:a
!	!	!LO:DY:a	!	!	!	!
8BBB-/ 8BB-	.	sfz	8.gg:/L	4a-:\ 4dd:	.	sfz
8A-'\L 8B- 8d 8f	.	.	.	.	.	.
.	.	.	16ff/Jk	.	.	.
8A-'\J 8B- 8d 8f	.	.	16ee-/LL	4r	.	.
.	.	.	16dd/	.	.	.
8r	.	.	16cc/	.	.	.
.	.	.	16b-/JJ	.	.	.
*Xped	*	*	*	*	*	*
=432	=432	=432	=432	=432	=432	=432
8E-'\L	.	.	8b-'/L	8g\L	.	.
8G'\J 8B-	.	.	16cc'/L	16g\L	.	.
.	.	.	16cc'/JJ	16g\JJ	.	.
8BB-'\L	.	.	8b-'/L	8g\L	.	.
8G'\J 8B-	.	.	8gg'/J	8g\J	.	.
=433	=433	=433	=433	=433	=433	=433
8E-'\L	.	.	8ff'/L	8g\L 8b-	.	.
8G'\J 8B-	.	.	8ee-'/	8g\ 8b-	.	.
8BB-'\L	.	.	8dd'/J	8g\J 8b-	.	.
8G'\J 8B-	.	.	16r	16ryy	.	.
.	.	.	16cc/	16g\ 16b-	.	.
=434	=434	=434	=434	=434	=434	=434
!	!	!	!	!	!	!LO:HP:a
8D'\L	.	.	(8cc:/L	4f:\ 4a-:	.	>
8A-'\J 8B-	.	.	8b-/J)	.	.	]
8BB-'\L	.	.	(16ee-:/LL	4f:\ 4a-:	.	.
.	.	.	16dd/	.	.	.
8A-'\J 8B-	.	.	16cc/	.	.	.
.	.	.	16dd/JJ)	.	.	.
*	*	*	*v	*v	*	*
=435	=435	=435	=435	=435	=435
8E-'\ 8B-	.	.	8g\L 8ee-	.	.
8E-/L	.	.	8b-\ 8gg	.	.
8EE-/J	.	.	8g\J 8ee-	.	.
8r	.	.	(16dd\LL	.	.
.	.	.	16ee-\JJ)	.	.
!!LO:LB:g=original	!	!	!	!	!
=436	=436	=436	=436	=436	=436
*^	*	*	*^	*	*
8BB-'/	8BB-\L	.	.	8ff'/L	4f\	.	.
8ryy	8F'\ 8B- 8d	.	.	(16een/L	.	.	.
.	.	.	.	16gg/JJ)	.	.	.
8ryy	8F'\J 8B- 8d	.	.	8ff'/L	4f\	.	.
8r	8ryy	.	.	(16ee/L	.	.	.
.	.	.	.	16gg/JJ)	.	.	.
=437	=437	=437	=437	=437	=437	=437	=437
8BB-'/	8BB-\L	.	.	4ff/	4f\	.	.
8ryy	8F'\ 8B- 8d	.	.	.	.	.	.
8ryy	8F'\J 8B- 8d	.	.	8dd/L	8f\L	.	.
8r	8ryy	.	.	8b-/J	8f\J	.	.
*v	*v	*	*	*	*	*	*
=438	=438	=438	=438	=438	=438	=438
8FF'/L	.	.	(16dd/LL	4f\	.	.
.	.	.	16cc/	.	.	.
8F'\ 8An 8e-	.	.	16bn/	.	.	.
.	.	.	16cc/JJ)	.	.	.
8F'\J 8c 8e-	.	.	(16b-X/LL	4r	.	.
.	.	.	16an/	.	.	.
8r	.	.	16g/	.	.	.
.	.	.	16f/JJ)	.	.	.
*	*	*	*v	*v	*	*
=439	=439	=439	=439	=439	=439
*^	*	*	*	*	*
8BB-'/	8BB-\L	.	.	(16b-\LL	.	.
.	.	.	.	16cc\	.	.
8ryy	8F'\ 8B- 8d	.	.	16b-\	.	.
.	.	.	.	16an\JJ)	.	.
8ryy	8F'\J 8B- 8d	.	.	(16b-\LL	.	.
.	.	.	.	16cc\	.	.
8r	8ryy	.	.	16dd\	.	.
.	.	.	.	16ee-\JJ)	.	.
*v	*v	*	*	*	*	*
=440	=440	=440	=440	=440	=440
8BB-'\L	.	.	(16ff\LL	.	.
.	.	.	16f\	.	.
8F'\ 8B- 8d	.	.	16een\	.	.
.	.	.	16f\JJ	.	.
8F'\J 8B- 8d	.	.	16ff\LL	.	.
.	.	.	16f\	.	.
8r	.	.	16gg\	.	.
.	.	.	[<16f\JJ)	.	.
!!LO:LB:g=original	!	!	!	!	!
=441	=441	=441	=441	=441	=441
*	*	*	*^	*	*
8BB-'\L	.	.	4ff^^/	4f\]	.	.
8F'\ 8B- 8d	.	.	.	.	.	.
8F'\J 8B- 8d	.	.	8dd'/L	8f\L	.	.
8r	.	.	8b-'/J	8f\J	.	.
=442	=442	=442	=442	=442	=442	=442
8FF'/L	.	.	(16dd/LL	4f\	.	.
.	.	.	16cc/	.	.	.
8F'\ 8An 8e-	.	.	16bn/	.	.	.
.	.	.	16cc/JJ)	.	.	.
8F'\J 8A 8c 8e-	.	.	(16b/LL	4r	.	.
.	.	.	16cc/	.	.	.
8r	.	.	16ee-/	.	.	.
.	.	.	16an/JJ)	.	.	.
=443	=443	=443	=443	=443	=443	=443
8B-'\L 8d	.	.	4b-/	4b-\	.	.
8d'\ 8f	.	.	.	.	.	.
8B-'\J 8d	.	.	8r	8ryy	.	.
8r	.	.	16g/LL	8ryy	.	.
.	.	.	16a-X/JJ	.	.	.
=444	=444	=444	=444	=444	=444	=444
8E-'\L	.	.	8b-'/L	8g\L	.	.
8G'\J 8B-	.	.	8cc'M/J	8g\J	.	.
8BB-'\L	.	.	8b-'/L	8g\L	.	.
8G'\J 8B-	.	.	8gg'/J	8g\J 8b-	.	.
=445	=445	=445	=445	=445	=445	=445
8E-'\L	.	.	8ff'/L	8g\L 8b-	.	.
8G'\J 8B-	.	.	8ee-'/	8g\ 8b-	.	.
8BB-'\L	.	.	8dd'/J	8g\J 8b-	.	.
8G'\J 8B-	.	.	16r	16ryy	.	.
.	.	.	16cc/	16g\ 16b-	.	.
=446	=446	=446	=446	=446	=446	=446
8D'\L	.	.	(8cc^^:/L	4f:\ 4a-:	.	.
8A-'\J 8B-	.	.	8b-/J)	.	.	.
8BB-'\L	.	.	(8ee-^^:/L	4f:\ 4a-:	.	.
8A-'\J 8B-	.	.	8dd/J)	.	.	.
!!LO:PB:g=original	!	!	!	!	!	!
=447	=447	=447	=447	=447	=447	=447
*ped	*	*	*	*	*	*
!	!	!	!	!	!	!LO:DY:a
8BBB-/ 8BB-	.	.	8.gg:/L	4a-:\ 4dd:	.	sfz
8A-'\L 8B- 8d 8f	.	.	.	.	.	.
.	.	.	16ff/Jk	.	.	.
8A-'\J 8B- 8d 8f	.	.	16ee-/LL	4r	.	.
.	.	.	16dd/	.	.	.
8r	.	.	16cc/	.	.	.
.	.	.	16b-/JJ	.	.	.
*Xped	*	*	*	*	*	*
=448	=448	=448	=448	=448	=448	=448
8E-'\L	.	.	8b-'/L	8g\L	.	.
8G'\J 8B-	.	.	16cc'/L	16g\L	.	.
.	.	.	16cc'/JJ	16g\JJ	.	.
8BB-'\L	.	.	8b-'/L	8g\L	.	.
8G'\J 8B-	.	.	8gg'/J	8g\J 8b-	.	.
=449	=449	=449	=449	=449	=449	=449
8E-'\L	.	.	8ff'/L	8g\L 8b-	.	.
8G'\J 8B-	.	.	8ee-'/	8g\ 8b-	.	.
8BB-'\L	.	.	8dd'/J	8g\J 8b-	.	.
8G'\J 8B-	.	.	16r	16ryy	.	.
.	.	.	16cc/	16g\ 16b-	.	.
=450	=450	=450	=450	=450	=450	=450
8D'\L	.	.	(8cc:/L	4f:\ 4a-:	.	.
8A-'\J 8B-	.	.	8b-/J)	.	.	.
8BB-'\L	.	.	(8ee-:/L	4f:\ 4a-:	.	.
8A-'\J 8B-	.	.	8dd/J)	.	.	.
=451	=451	=451	=451	=451	=451	=451
!	!	!	!	!	!	!LO:DY:a
8BBB-/ 8BB-	.	.	8.gg:/L	4a-:\ 4dd:	.	sfz
8A-'\L 8B- 8d 8f	.	.	.	.	.	.
.	.	.	16ff/Jk	.	.	.
8A-'\J 8B- 8d 8f	.	.	16ee-M/LL	4r	.	.
.	.	.	16dd/	.	.	.
8r	.	.	16cc/	.	.	.
.	.	.	16b-/JJ	.	.	.
*	*	*	*v	*v	*	*
=452||	=452||	=452||	=452||	=452||	=452||
!	!	!	!LO:TX:B:a:t=CODA.	!	!
8GG\ 8G	.	.	(16b-\LL	.	p
!	!	!	!LO:TX:i:b:t=lusingando	!	!
.	.	.	16bb-\)	.	.
8G\L 8B- 8e-	.	.	(16bb-\	.	.
.	.	.	16aa-\JJ)	.	.
8G\J 8B- 8e-	.	.	(16aa-\LL	.	.
.	.	.	16gg\)	.	.
8r	.	.	(16gg\	.	.
.	.	.	16ff\JJ)	.	.
=453	=453	=453	=453	=453	=453
8CC/ 8C	.	.	(16ff\LL	.	.
.	.	.	16een\)	.	.
8G\L 8B- 8c 8en	.	.	(16ee\	.	.
.	.	.	16dd-X\JJ)	.	.
8G\J 8B- 8c 8e	.	.	(16dd-\LL	.	.
.	.	.	16cc\)	.	.
8r	.	.	(16cc\	.	.
.	.	.	16b-\JJ)	.	.
=454	=454	=454	=454	=454	=454
8FF\L 8F	.	.	(16b-\LL	.	.
.	.	.	16a-\)	.	.
8A-\J 8c 8f	.	.	(16a-\	.	.
.	.	.	16aa-\JJ)	.	.
8E-\L	.	.	(16aa-\LL	.	.
.	.	.	16a-\)	.	.
8A-\J 8c-X 8f	.	.	(16a-\	.	.
.	.	.	16aa-\JJ)	.	.
=455	=455	=455	=455	=455	=455
*^	*	*	*	*	*
8D`/	8D\	.	.	(16aa-\LL	.	.
.	.	.	.	16gg\	.	.
4A-\ 4B- 4f	4ryy	.	.	16ff\	.	.
.	.	.	.	16ee-\JJ	.	.
.	.	.	.	16dd\LL	.	.
.	.	.	.	16cc\	.	.
8A-\ 8B- 8f	8ryy	.	.	16b-\	.	.
.	.	.	.	16a-\JJ)	.	.
=456	=456	=456	=456	=456	=456	=456
8E-`/	8E-\	.	.	(16g\LL	.	.
.	.	.	.	16b-\	.	.
4G\ 4B- 4e-	8ryy	.	.	16ee-\	.	.
.	.	.	.	16dd\JJ	.	.
.	4ryy	.	.	16ff\LL	.	.
.	.	.	.	16ee-\	.	.
8G\ 8B- 8e-	.	.	.	16b-\	.	.
.	.	.	.	16g\JJ)	.	.
*v	*v	*	*	*	*	*
!!LO:LB:g=original	!	!	!	!	!
=457	=457	=457	=457	=457	=457
8AA-`/	.	.	(16g/LL	.	.
.	.	.	16f/	.	.
4A-\ 4c	.	.	16a-/	.	.
.	.	.	16bn/JJ	.	.
.	.	.	16dd/LL	.	.
.	.	.	16cc/	.	.
8A-\ 8c	.	.	16a-/	.	.
.	.	.	16f/JJ)	.	.
=458	=458	=458	=458	=458	=458
8BB-`/	.	.	(16f/LL	.	.
.	.	.	16e-/	.	.
4G\ 4B-	.	.	16g/	.	.
.	.	.	16an/JJ	.	.
.	.	.	16cc/LL	.	.
.	.	.	16b-/	.	.
8G\ 8B-	.	.	16g/	.	.
.	.	.	16e-/JJ)	.	.
=459	=459	=459	=459	=459	=459
8BB-`/	.	.	(16d/LL	.	.
.	.	.	16f/	.	.
4F\ 4A-	.	.	16a-/	.	.
.	.	.	16g/JJ	.	.
.	.	.	16b-/LL	.	.
.	.	.	16a-/	.	.
8F\ 8A-	.	.	16f/	.	.
.	.	.	16d/JJ)	.	.
=460	=460	=460	=460	=460	=460
8EE-`/ 8E-	.	.	8e-`>/	.	sfz
((16E-\LL	.	.	(16e-/LL	.	.
16D\JJ	.	.	16d/JJ	.	.
16E-\LL	.	.	16e-/LL	.	.
16D\	.	.	16d/	.	.
16E-\	.	.	16e-/	.	.
16D\JJ))	.	.	16d/JJ)	.	.
=461	=461	=461	=461	=461	=461
8E-'\L	.	.	(16e-/LL	.	.
.	.	.	16d/	.	.
8E-'\	.	.	16e-/	.	.
.	.	.	16f/JJ	.	.
!	!	!	!LO:TX:i:b:t=sempre più	!	!
8E-\ 8B- 8d-X	.	.	16g/LL	.	.
.	.	.	16e-/	.	.
8E-\J 8B- 8d-	.	.	16f/	.	.
.	.	.	16g/JJ)	.	.
=462	=462	=462	=462	=462	=462
!	!	!	!LO:TX:b:t=crescen_do:dur=13s:ext=ud:problem:text with extention lines	!	!
8E-\L 8A- 8c	.	.	(16a-/LL	.	<
.	.	.	16b-/	.	.
8E-\ 8A- 8c	.	.	16a-/	.	.
.	.	.	16g/JJ	.	.
8E-\ 8A- 8c	.	.	16a-/LL	.	.
.	.	.	16b-/	.	.
8E-\J 8A- 8c	.	.	16cc/	.	.
.	.	.	16b-/JJ)	.	.
=463	=463	=463	=463	=463	=463
8E-\L 8A- 8B- 8dn	.	.	(16a-/LL	.	.
.	.	.	16g/	.	.
8E-\ 8A- 8B- 8d	.	.	16f/	.	.
.	.	.	16g/JJ	.	.
8E-\ 8A- 8d	.	.	16a-/LL	.	[
.	.	.	16b-/	.	.
8E-\J 8A- 8B- 8d	.	.	16cc/	.	.
.	.	.	16dd/JJ)	.	.
=464	=464	=464	=464	=464	=464
8E-\L 8G 8B- 8e-	.	.	8ee-`\L	.	f
.	.	.	8qff/	.	[
8E-\ 8G 8B- 8e-	.	.	(16ee-\L	.	.
.	.	.	16dd\JJ)	.	.
8E-\ 8G 8B- 8e-	.	.	(16ee-\LL	.	.
.	.	.	16b-\	.	.
8E-\J 8G 8B- 8e-	.	.	16ee-\	.	.
.	.	.	16ff\JJ)	.	.
=465	=465	=465	=465	=465	=465
8E-\L 8B- 8d-X 8e-	.	.	(16gg\LL	.	.
.	.	.	16ff\	.	.
8E-\ 8B- 8d- 8e-	.	.	16ee-\	.	.
.	.	.	16ff\JJ	.	.
8E-\ 8B- 8d- 8e-	.	.	16gg\LL	.	.
.	.	.	16aa-\	.	.
8E-\J 8B- 8d- 8e-	.	.	16bb-\	.	.
.	.	.	16gg\JJ)	.	.
=466	=466	=466	=466	=466	=466
!	!	!	!LO:TX:i:b:t=più	!	!
8E-\L 8A- 8c 8e-	.	.	(16aa-\LL	.	.
.	.	.	16bb-\	.	.
8E-\ 8A- 8c 8e-	.	.	16aa-\	.	f
.	.	.	16gg\JJ	.	.
8E-\ 8A- 8c 8e-	.	.	16aa-\LL	.	.
.	.	.	16bb-\	.	.
8E-\J 8A- 8c 8e-	.	.	16ccc\	.	.
.	.	.	16bb-\JJ)	.	.
=467	=467	=467	=467	=467	=467
8E-\L 8F 8A- 8B- 8dn	.	.	(16aa-\LL	.	.
.	.	.	16gg\	.	.
8E-\ 8F 8A- 8B- 8d	.	.	16ff\	.	.
.	.	.	16gg\JJ	.	.
8E-\ 8F 8A- 8B- 8d	.	.	16aa-\LL	.	.
.	.	.	16bb-\	.	.
8E-\J 8F 8A- 8B- 8d	.	.	16ccc\	.	.
.	.	.	16ddd\JJ)	.	.
!!LO:LB:g=original	!	!	!	!	!
=468	=468	=468	=468	=468	=468
8E-\ 8G 8B- 8e-	.	.	8eee-`\L	.	ff
*clefG2	*	*	*	*	*
8b-`\L	.	.	8bb-`\	.	.
8ee-`\	.	.	8eee-`\	.	.
8b-`\J	.	.	8bb-`\J	.	.
=469	=469	=469	=469	=469	=469
8ee-`\L	.	.	8eee-`\L	.	.
8b-`\	.	.	8bb-`\	.	.
8ee-`\	.	.	8eee-`\	.	.
8b-`\J	.	.	8bb-`\J	.	.
=470	=470	=470	=470	=470	=470
8ee-`\	.	.	8eee-`\	.	.
8B-`/L 8f	.	.	8b-`\L 8dd 8ff	.	.
8e-`/ 8g	.	.	8b-`\ 8ee- 8gg	.	.
8B-`/J 8f	.	.	8b-`\J 8dd 8ff	.	.
=471	=471	=471	=471	=471	=471
8e-`/L 8g	.	.	8b-`\L 8ee- 8gg	.	.
8B-`/ 8f	.	.	8b-`\ 8dd 8ff	.	.
8e-`/ 8g	.	.	8b-`\ 8ee- 8gg	.	.
8B-`/J 8f	.	.	8b-`\J 8dd 8ff	.	.
=472	=472	=472	=472	=472	=472
8e-`/ 8g	.	.	8b-`\ 8ee- 8gg	.	.
*clefF4	*	*	*	*	*
8BB-`\L 8B-	.	.	8ff`\L 8aa- 8bb- 8ddd	.	.
8E-`\ 8e-	.	.	8gg`\ 8bb- 8eee-	.	.
8BB-`\J 8B-	.	.	8ff`\J 8aa- 8bb- 8ddd	.	.
=473	=473	=473	=473	=473	=473
8E-`\L 8e-	.	.	8gg`\L 8bb- 8eee-	.	.
8BB-`\ 8B-	.	.	8ff`\ 8aa- 8bb- 8ddd	.	.
8E-`\ 8e-	.	.	8gg`\ 8bb- 8eee-	.	.
8BB-`\J 8B-	.	.	8ff`\J 8aa- 8bb- 8ddd	.	.
=474	=474	=474	=474	=474	=474
8E-`\ 8e-	.	.	8ee-`\ 8gg 8bb- 8eee-	.	.
8r	.	.	8r	.	.
4r	.	.	4r	.	.
=475	=475	=475	=475	=475	=475
8BB-\ 8B-	.	.	8b-\ 8dd 8ff 8bb-	.	.
8r	.	.	8r	.	.
4r	.	.	4r	.	.
=476	=476	=476	=476	=476	=476
4EE-;</ 4GG 4BB- 4E-	.	.	4e-;/ 4g 4b- 4ee-	.	.
4r	.	.	4r	.	.
==	==	==	==	==	==
*-	*-	*-	*-	*-	*-
!!!system-decoration: {(s1,s2)}
!!!RDF**kern: > = above
!!!RDF**kern: < = below
!!!RDF**kern: N = linked
!!!ENC: Berenika Jozajtis
!!!END: 2022-07-28
!!!ENC: Natalia Wrzos
!!!END: 2022-08-23
